!!!!SEGMENT: pl-sa--172-a-v-2--011_szczurowski-jacek--msza-swiateczna-osanna.krn
!!!cenid: 17xx:271
!!!COM: Szczurowski, Jacek
!!!COM-rismID: pe30017605
!!!CDT: 1716/08/15-~1733
!!!CNT: Polish
!!!OPR: Msza świąteczna
!!!OTL: Osanna
!!!OMV: 011
!!!PDT:
!!!AGN: Sacred; Mass
!!!SMS-siglum: PL-SA
!!!SMS-shelfmark: 172/A V 2
!!!SMS-shelfwork: 001-011 M
!!!NIFC-rismSourceID: 1001035618
!!!NIFC-rismChildID: 1001035618
!!!NIFC-islandoraID: none
!!!URL-pdf-islandora:
!!!URL-scan: https://bc.bdsandomierz.pl/dlibra/publication/1506/edition/1474/content @EN{Scan in the Sandomierz Diocese Digital Library} @PL{Skany w portalu Cyfrowa Biblioteka Diecezjalna w Sandomierzu}
!!!ONB-nifc: UWAGA: części Mszy: Kyrie, Christe, Et in terra, Laudamus, Qui tollis, Quoniam, Patrem, Et Incarnatus, Ressurexit, Sanctus, Osanna, Benedictus, Agnus Dei
!!!AIN: 2 cor 1 organ 2 soprn 2 violn
!!!key: D
!!!OMD:
!!!OMD-mod: Allegro
**kern	**fba	**dynam	**kern	**dynam	**kern	**dynam	**kern	**text	**kern	**text	**kern	**kern
*	*	*	*group3	*	*group3	*	*group2	*	*group2	*	*group1	*group1
*part7	*part7	*part7	*part6	*part6	*part5	*part5	*part4	*part4	*part3	*part3	*part2	*part1
*staff7	*	*	*staff6	*	*staff5	*	*staff4	*staff4	*staff3	*staff3	*staff2	*staff1
*I"Organo:	*	*	*I"Violino 2di	*	*I"Violino Primo	*	*I"Soprano 2do.	*	*I"Soprano Primo.	*	*I"Corno 2do Ex D:	*I"Corno Primo Ex D:
*mI"Organo	*	*	*mI"Violino II	*	*mI"Violino I	*	*mI"Soprano II	*	*mI"Soprano I	*	*mI:Corno II in D	*mI"Corno I in D
*I'org	*	*	*I'vl 2	*	*I'vl 1	*	*I'S 2	*	*I'S 1	*	*I'cor 2 in D	*I'cor 1 in D
*Iorgan	*	*	*Ivioln	*	*Ivioln	*	*Isoprn	*	*Isoprn	*	*Icor	*Icor
*ICklav	*	*	*ICstr	*	*ICstr	*	*ICvox	*	*ICvox	*	*ICbras	*ICbras
*IGcont	*	*	*	*	*	*	*	*	*	*	*	*
*clefF4	*	*	*clefG2	*	*clefG2	*	*clefC1	*	*clefC1	*	*clefG2	*clefG2
*	*	*	*	*	*	*	*mclefG2	*	*mclefG2	*	*	*
*	*	*	*	*	*	*	*	*	*	*	*ITrd6c10	*ITrd6c10
*k[f#c#]	*	*	*k[f#c#]	*	*k[f#c#]	*	*k[f#c#]	*	*k[f#c#]	*	*k[f#c#]	*k[f#c#]
*D:	*	*	*D:	*	*D:	*	*D:	*	*D:	*	*D:	*D:
*M3/8	*	*	*M3/8	*	*M3/8	*	*M3/8	*	*M3/8	*	*M3/8	*M3/8
=1	=1	=1	=1	=1	=1	=1	=1	=1	=1	=1	=1	=1
!	!	!	!	!	!LO:TX:a:t=allo:mod=	!	!LO:TX:a:t=26:mod=	!	!LO:TX:a:t=26:mod=	!	!LO:TX:a:t=allo:mod=	!LO:TX:a:t=allo:mod=
8D\L	.	.	8d/L	.	8d/L	.	1.r	.	1.r	.	8D/L	8D/L
16D\L	.	.	16d/L	.	16d/L	.	.	.	.	.	16D/L	16D/L
16D\	.	.	16d/	.	16d/	.	.	.	.	.	16D/	16D/
16D\	.	.	16d/	.	16d/	.	.	.	.	.	16D/	16D/
16D\JJ	.	.	16d/JJ	.	16d/JJ	.	.	.	.	.	16D/JJ	16D/JJ
!	!	!	!	!	!LO:LB:g=original	!	!	!	!	!	!	!
=2	=2	=2	=2	=2	=2	=2	=2	=2	=2	=2	=2	=2
!	!	!	!LO:MO:mod=!null:null	!	!	!	!	!	!	!	!	!
!	!	!	!LO:N:vis=16	!	!	!	!	!	!	!	!	!
8D\L	.	.	8d/L	.	8d/L	.	.	.	.	.	8D/	8D/
16D\L	.	.	16d/L	.	16d/L	.	.	.	.	.	8r	8r
16E\	.	.	16e/	.	16e/	.	.	.	.	.	.	.
16F#\	.	.	16f#/	.	16f#/	.	.	.	.	.	8r	8r
16G\JJ	.	.	16g/JJ	.	16g/JJ	.	.	.	.	.	.	.
!	!	!	!	!	!	!	!	!	!	!	!	!LO:LB:g=original
=3	=3	=3	=3	=3	=3	=3	=3	=3	=3	=3	=3	=3
8A\L	.	.	8a/L	.	8a/L	.	.	.	.	.	8A/	8A/
16A\L	.	.	16a/L	.	16a/L	.	.	.	.	.	8r	8r
16B\	.	.	16b/	.	16b/	.	.	.	.	.	.	.
16c#\	.	.	16cc#/	.	16cc#/	.	.	.	.	.	8r	8r
16A\JJ	.	.	16a/JJ	.	16a/JJ	.	.	.	.	.	.	.
=4	=4	=4	=4	=4	=4	=4	=4	=4	=4	=4	=4	=4
16d\LL	.	.	16dd/LL	.	16dd/LL	.	.	.	.	.	16d/LL	16d/LL
16d\	.	.	16dd/	.	16dd/	.	.	.	.	.	16d/	16d/
16F#\	.	.	16f#/	.	16f#/	.	.	.	.	.	16F#/	16F#/
16F#\	.	.	16f#/	.	16f#/	.	.	.	.	.	16F#/	16F#/
16A\	.	.	16a/	.	16a/	.	.	.	.	.	16A/	16A/
16A\JJ	.	.	16a/JJ	.	16a/JJ	.	.	.	.	.	16A/JJ	16A/JJ
=5	=5	=5	=5	=5	=5	=5	=5	=5	=5	=5	=5	=5
4D\	.	.	4d/	.	4d/	.	1.r	.	1.r	.	4D/	4D/
8F#\	.	.	8f#/	.	8a/	.	.	.	.	.	8f#\	8a\
=6	=6	=6	=6	=6	=6	=6	=6	=6	=6	=6	=6	=6
8G\L	.	.	16g/LL	.	16b\LL	.	.	.	.	.	8g\	8b\
.	.	.	16g/	.	16b\	.	.	.	.	.	.	.
8G\	.	.	16b/	.	16dd\	.	.	.	.	.	8r	8r
.	.	.	16b/	.	16dd\	.	.	.	.	.	.	.
8G\J	.	.	16b/	.	16gg\	.	.	.	.	.	8r	8r
.	.	.	16b/JJ	.	16gg\JJ	.	.	.	.	.	.	.
=7	=7	=7	=7	=7	=7	=7	=7	=7	=7	=7	=7	=7
!	!	!	!	!	!	!	!	!	!	!	!LO:TX:t=P:problem:brak taktu:mod=	!
!	!	!	!	!	!	!	!	!	!	!	!LO:MO:mod=8f#@	!
8D/L	.	.	16f#/LL	.	16a\LL	.	.	.	.	.	4.ryy	8a\
.	.	.	16f#/	.	16a\	.	.	.	.	.	.	.
!	!	!	!	!	!	!	!	!	!	!	!LO:MO:null:mod=8r@	!
8D/	.	.	16a/	.	16dd\	.	.	.	.	.	.	8r
.	.	.	16a/	.	16dd\	.	.	.	.	.	.	.
!	!	!	!	!	!	!	!	!	!	!	!LO:MO:null:mod=8r@	!
8D/J	.	.	16dd/	.	16ff#\	.	.	.	.	.	.	8r
.	.	.	16dd/JJ	.	16ff#\JJ	.	.	.	.	.	.	.
=8	=8	=8	=8	=8	=8	=8	=8	=8	=8	=8	=8	=8
!	!	!	!	!	!	!	!	!	!	!	!LO:SIC:v:s=8e\	!
8AA/L	7	.	16cc#/LL	.	16ee/LL	.	.	.	.	.	8f#\	8g\
.	.	.	16cc#/	.	16ee/	.	.	.	.	.	.	.
8AA/	.	.	16a/	.	16cc#/	.	.	.	.	.	8r	8r
.	.	.	16a/	.	16cc#/	.	.	.	.	.	.	.
8AA/J	.	.	16e/	.	16g/	.	.	.	.	.	8e\	8g\
.	.	.	16e/JJ	.	16g/JJ	.	.	.	.	.	.	.
!	!	!	!LO:LB:g=original	!	!	!	!	!	!	!	!	!
=9	=9	=9	=9	=9	=9	=9	=9	=9	=9	=9	=9	=9
8D/L	2	.	8e/L	.	8g/L	.	1.r	.	1.r	.	8e\L	8g\L
8D/	3	.	8d/	.	8f#/	.	.	.	.	.	8d\	8f#\
8D/J	.	.	8f#/J	.	8a/J	.	.	.	.	.	8f#\J	8a\J
!LO:LB:g=original	!	!	!	!	!	!	!	!	!	!	!	!
=10	=10	=10	=10	=10	=10	=10	=10	=10	=10	=10	=10	=10
8G\L	.	.	16g/LL	.	16b\LL	.	.	.	.	.	8g\	8b\
.	.	.	16g/	.	16b\	.	.	.	.	.	.	.
8G\	.	.	16b/	.	16dd\	.	.	.	.	.	8r	8r
.	.	.	16b/	.	16dd\	.	.	.	.	.	.	.
8G\J	.	.	16b/	.	16gg\	.	.	.	.	.	8r	8r
.	.	.	16b/JJ	.	16gg\JJ	.	.	.	.	.	.	.
!	!	!	!	!	!	!	!	!	!	!	!LO:LB:g=original	!
=11	=11	=11	=11	=11	=11	=11	=11	=11	=11	=11	=11	=11
8D/L	.	.	16f#/LL	.	16a\LL	.	.	.	.	.	8f#\	8a\
.	.	.	16f#/	.	16a\	.	.	.	.	.	.	.
8D/	.	.	16a/	.	16dd\	.	.	.	.	.	8r	8r
.	.	.	16a/	.	16dd\	.	.	.	.	.	.	.
8D/J	.	.	16dd/	.	16ff#\	.	.	.	.	.	8r	8r
.	.	.	16dd/JJ	.	16ff#\JJ	.	.	.	.	.	.	.
!	!	!	!	!	!LO:LB:g=original	!	!	!	!	!	!	!
=12	=12	=12	=12	=12	=12	=12	=12	=12	=12	=12	=12	=12
8AA/L	7	.	16cc#/LL	.	16ee/LL	.	.	.	.	.	8e\	8g\
.	.	.	16cc#/	.	16ee/	.	.	.	.	.	.	.
8AA/	.	.	16a/	.	16cc#/	.	.	.	.	.	8r	8r
.	.	.	16a/	.	16cc#/	.	.	.	.	.	.	.
8AA/J	.	.	16e/	.	16g/	.	.	.	.	.	8e\	8g\
.	.	.	16e/JJ	.	16g/JJ	.	.	.	.	.	.	.
=13	=13	=13	=13	=13	=13	=13	=13	=13	=13	=13	=13	=13
!	!	!	!LO:TX:a:t=P:problem=mixed beam:mod=	!	!LO:TX:a:t=P:problem=mixed beam:mod=	!	!	!	!	!	!	!
8AA/L	4	.	8d/L	.	8f#/L	.	1.r	.	1.r	.	8d/L	8f#\L
.	3	.	.	.	.	.	.	.	.	.	.	.
8AA/	.	.	8c#/	.	8e/	.	.	.	.	.	8A/J	8e\J
8AA/J	.	.	8ff#\J	.	8aa\J	.	.	.	.	.	8r	8r
=14	=14	=14	=14	=14	=14	=14	=14	=14	=14	=14	=14	=14
!	!	!	!	!	!LO:TX:a:t=P:problem=mixed beam:mod=	!	!	!	!	!	!	!
8AA/L	8	.	16ff#\LL	.	16aa\LL	.	.	.	.	.	4.f#\	4.a\
.	.	.	16a\	.	16a/	.	.	.	.	.	.	.
8AA/	.	.	16a\	.	16a/	.	.	.	.	.	.	.
.	.	.	16ff#\	.	16aa\	.	.	.	.	.	.	.
8AA/J	.	.	16ff#\	.	16aa\	.	.	.	.	.	.	.
.	.	.	16a\JJ	.	16a/JJ	.	.	.	.	.	.	.
=15	=15	=15	=15	=15	=15	=15	=15	=15	=15	=15	=15	=15
!	!	!	!	!	!LO:TX:a:t=P:problem=mixed beam:mod=	!	!	!	!	!	!	!
8AA/L	7	.	16ee\LL	.	16gg\LL	.	.	.	.	.	4.e\	4.g\
.	.	.	16a\	.	16a/	.	.	.	.	.	.	.
8AA/	.	.	16a\	.	16a/	.	.	.	.	.	.	.
.	.	.	16ee\	.	16gg\	.	.	.	.	.	.	.
8AA/J	.	.	16ee\	.	16gg\	.	.	.	.	.	.	.
.	.	.	16a\JJ	.	16a/JJ	.	.	.	.	.	.	.
=16	=16	=16	=16	=16	=16	=16	=16	=16	=16	=16	=16	=16
!	!	!	!	!	!LO:TX:a:t=P:problem=mixed beam:mod=	!	!	!	!	!	!	!
8AA/L	6 4	.	16dd\LL	.	16ff#\LL	.	.	.	.	.	4.d\	4.f#\
.	.	.	16a\	.	16a/	.	.	.	.	.	.	.
8AA/	.	.	16a\	.	16ff#\ 16a/	.	.	.	.	.	.	.
.	.	.	16dd\	.	16ff#\	.	.	.	.	.	.	.
8AA/J	.	.	16dd\	.	16ff#\	.	.	.	.	.	.	.
.	.	.	16a\JJ	.	16a/JJ	.	.	.	.	.	.	.
=17	=17	=17	=17	=17	=17	=17	=17	=17	=17	=17	=17	=17
8AA/L	4	.	16dd\LL	.	16ff#\LL	.	1.r	.	1.r	.	8d/L	8f#\L
.	3	.	16cc#\J	.	16ee\J	.	.	.	.	.	.	.
8AA/	.	.	8cc#\J	.	8ee\J	.	.	.	.	.	8A/J	8e\J
8AA/J	.	.	8f#/	.	8a/	.	.	.	.	.	8r	8r
=18	=18	=18	=18	=18	=18	=18	=18	=18	=18	=18	=18	=18
!	!	!	!	!	!	!	!	!	!	!	!	!LO:TX:a:t=3:mod=
8AA/L	8	.	16f#/LL	.	16a/LL	.	.	.	.	.	2.r	2.r
.	.	.	16A/	.	16A/	.	.	.	.	.	.	.
8AA/	.	.	16A/	.	16A/	.	.	.	.	.	.	.
.	.	.	16f#/	.	16a/	.	.	.	.	.	.	.
8AA/J	.	.	16f#/	.	16a/	.	.	.	.	.	.	.
.	.	.	16A/JJ	.	16A/JJ	.	.	.	.	.	.	.
=19	=19	=19	=19	=19	=19	=19	=19	=19	=19	=19	=19	=19
8AA/L	7	.	16e/LL	.	16g/LL	.	.	.	.	.	.	.
.	.	.	16A/	.	16A/	.	.	.	.	.	.	.
8AA/	.	.	16A/	.	16A/	.	.	.	.	.	.	.
.	.	.	16e/	.	16g/	.	.	.	.	.	.	.
8AA/J	.	.	16e/	.	16g/	.	.	.	.	.	.	.
.	.	.	16A/JJ	.	16A/JJ	.	.	.	.	.	.	.
!	!	!	!LO:PB:g=original	!	!	!	!	!	!	!	!	!
=20	=20	=20	=20	=20	=20	=20	=20	=20	=20	=20	=20	=20
8AA/L	6 4	.	16d/LL	.	16f#/LL	.	.	.	.	.	4.r	4.r
.	.	.	16A/	.	16A/	.	.	.	.	.	.	.
8AA/	.	.	16A/	.	16A/	.	.	.	.	.	.	.
.	.	.	16d/	.	16f#/	.	.	.	.	.	.	.
8AA/J	.	.	16d/	.	16f#/	.	.	.	.	.	.	.
.	.	.	16A/JJ	.	16A/JJ	.	.	.	.	.	.	.
=21	=21	=21	=21	=21	=21	=21	=21	=21	=21	=21	=21	=21
!LO:TX:a:t=P:problem=mixed beam:mod=	!	!	!	!	!	!	!	!	!	!	!	!
8AA/L	4	.	16d/LL	.	16f#/LL	.	1.r	.	1.r	.	4r	4r
.	3	.	16c#/J	.	16e/J	.	.	.	.	.	.	.
8A\	.	.	8c#/J	.	8e/J	.	.	.	.	.	.	.
8G\J	2	.	8e/	.	8cc#\	.	.	.	.	.	8A/	8e\
=22	=22	=22	=22	=22	=22	=22	=22	=22	=22	=22	=22	=22
8G\L	2	.	16e/LL	.	16cc#\LL	.	.	.	.	.	8A/L	8e\L
.	.	.	16e/	.	16cc#\	.	.	.	.	.	.	.
8G\	.	.	16e/	.	16cc#\	.	.	.	.	.	8A/	8e\
.	.	.	16e/	.	16cc#\JJ	.	.	.	.	.	.	.
!	!	!	!	!	!LO:LB:g=original	!	!	!	!	!	!	!
8G\J	.	.	16e/	.	16cc#\LL	.	.	.	.	.	8A/J	8e\J
.	.	.	16e/JJ	.	16cc#\JJ	.	.	.	.	.	.	.
=23	=23	=23	=23	=23	=23	=23	=23	=23	=23	=23	=23	=23
8F#\L	6	.	16a/LL	.	16dd\LL	.	.	.	.	.	8d\L	8f#\L
.	.	.	16a/	.	16dd\	.	.	.	.	.	.	.
8F#\	.	.	16a/	.	16dd\	.	.	.	.	.	8d\	8f#\
.	.	.	16a/	.	16dd\	.	.	.	.	.	.	.
8F#\J	.	.	16a/	.	16dd\	.	.	.	.	.	8d\J	8f#\J
.	.	.	16a/JJ	.	16dd\JJ	.	.	.	.	.	.	.
!LO:LB:g=original	!	!	!	!	!	!	!	!	!	!	!	!
=24	=24	=24	=24	=24	=24	=24	=24	=24	=24	=24	=24	=24
8G\L	6	.	16e/LL	.	16g/LL	.	.	.	.	.	8e\L	8g\L
.	.	.	16e/	.	16g/	.	.	.	.	.	.	.
8G\	.	.	16e/	.	16g/	.	.	.	.	.	8e\	8g\
.	.	.	16e/	.	16g/	.	.	.	.	.	.	.
8G\J	.	.	16e/	.	16g/	.	.	.	.	.	8e\J	8g\J
.	.	.	16e/JJ	.	16g/JJ	.	.	.	.	.	.	.
!	!	!	!	!	!	!	!	!	!	!	!	!LO:LB:g=original
=25	=25	=25	=25	=25	=25	=25	=25	=25	=25	=25	=25	=25
8A\L	4	.	16d/LL	.	16f#/LL	.	2.r	.	2.r	.	8d\L	8f#\L
.	.	.	16d/	.	16f#/	.	.	.	.	.	.	.
8A\	.	.	16d/	.	16f#/	.	.	.	.	.	8d\	8f#\
.	.	.	16d/	.	16f#/	.	.	.	.	.	.	.
8A\J	.	.	16d/	.	16f#/	.	.	.	.	.	8d\J	8f#\J
.	.	.	16d/JJ	.	16f#/JJ	.	.	.	.	.	.	.
=26	=26	=26	=26	=26	=26	=26	=26	=26	=26	=26	=26	=26
8AA/L	3	.	16c#/LL	.	16e/LL	.	.	.	.	.	8A/L	8e\L
.	.	.	16c#/	.	16e/	.	.	.	.	.	.	.
8AA/	.	.	16c#/	.	16e/	.	.	.	.	.	8A/	8e\
.	.	.	16c#/	.	16e/	.	.	.	.	.	.	.
8AA/J	.	.	16c#/	.	16e/	.	.	.	.	.	8A/J	8e\J
.	.	.	16c#/JJ	.	16e/JJ	.	.	.	.	.	.	.
=27	=27	=27	=27	=27	=27	=27	=27	=27	=27	=27	=27	=27
!	!	!	!	!	!	!	!	!	!LO:TX:a:t=allo:mod=	!	!	!
8D\L	.	.	4d/	.	4d/	.	4r	.	4r	.	4F#/	4d\
8F#\	.	.	.	.	.	.	.	.	.	.	.	.
!	!	!	!	!	!	!	!	!LO:MO:mod=O-	!	!LO:MO:mod=O-	!	!
8D\J	.	.	8r	.	8a/	.	8a\	O	8a\	O	8r	8r
!	!	!	!	!	!	!	!	!	!	!	!LO:PB:g=original	!
=28	=28	=28	=28	=28	=28	=28	=28	=28	=28	=28	=28	=28
!	!	!LO:DY:a	!	!LO:DY:a	!	!LO:DY:a	!	!LO:MO:mod=-san-	!	!LO:MO:mod=-san-	!	!
8D/L	.	p	4dd\	p	8dd\L	p	4dd\	San-	8dd\L	San-	8d\	8f#\
8D/	.	.	.	.	8ff#\	.	.	.	8ff#\J	.	8r	8r
8D/J	.	.	8ff#\	.	8aa\J	.	8ff#\	-na	8aa\	-na	8r	8r
!	!	!	!LO:LB:g=original	!	!	!	!	!	!	!	!	!
=29	=29	=29	=29	=29	=29	=29	=29	=29	=29	=29	=29	=29
8D/L	.	.	16dd\LL	.	16dd\LL	.	4dd\	in	8dd\	in	8d\	8f#\
.	.	.	16dd\	.	16dd\	.	.	.	.	.	.	.
8D/	.	.	16dd\	.	16ff#\	.	.	.	8ff#\L	ex-	8r	8r
.	.	.	16dd\	.	16ff#\	.	.	.	.	.	.	.
!	!	!	!	!	!	!	!	!LO:MO:mod=ex-	!	!	!	!
8D/J	.	.	16ff#\	.	16aa\	.	8ff#\	Ex-	8aa\J	.	8r	8r
.	.	.	16ff#\JJ	.	16aa\JJ	.	.	.	.	.	.	.
=30	=30	=30	=30	=30	=30	=30	=30	=30	=30	=30	=30	=30
8A\L	7	.	16ee\LL	.	16gg\LL	.	8ee\L	-cel-	8gg\L	-cel-	8e\L	8g\L
.	.	.	16ee\	.	16gg\	.	.	.	.	.	.	.
8A\	6	.	16dd\	.	16ff#\	.	8dd\	.	8ff#\	.	8d\	8f#\
.	.	.	16dd\	.	16ff#\	.	.	.	.	.	.	.
8A\J	5	.	16cc#\	.	16ee\	.	8cc#\J	.	8ee\J	.	8A\J	8e\J
.	.	.	16cc#\JJ	.	16ee\JJ	.	.	.	.	.	.	.
=31	=31	=31	=31	=31	=31	=31	=31	=31	=31	=31	=31	=31
16d\LL	.	.	16dd/LL	.	16dd/LL	.	4dd\	-sis	4dd\	-sis	16d/LL	16d/LL
16d\	.	.	16dd/	.	16dd/	.	.	.	.	.	16d/	16d/
16F#\	.	.	16f#/	.	16f#/	.	.	.	.	.	16F#/	16F#/
16F#\	.	.	16f#/	.	16f#/	.	.	.	.	.	16F#/	16F#/
16A\	.	.	16a/	.	16a/	.	8r	.	8r	.	16A/	16A/
16A\JJ	.	.	16a/JJ	.	16a/JJ	.	.	.	.	.	16A/JJ	16A/JJ
!	!	!	!	!	!	!	!	!	!LO:LB:g=original	!	!	!
=32	=32	=32	=32	=32	=32	=32	=32	=32	=32	=32	=32	=32
!	!	!	!	!	!	!	!LO:TX:a:t=8:mod=	!	!	!	!	!
8D\L	.	.	4d/	.	4d/	.	1.r	.	4r	.	4D/	4D/
8F#\	.	.	.	.	.	.	.	.	.	.	.	.
!	!	!	!	!	!	!	!	!	!	!LO:MO:mod=O-	!	!
8D\J	.	.	8f#/	.	8a/	.	.	.	8a\	o	8r	8r
=33	=33	=33	=33	=33	=33	=33	=33	=33	=33	=33	=33	=33
!	!	!	!	!	!	!	!	!	!	!LO:MO:mod=-san-	!LO:TX:a:t=2:mod=	!LO:TX:a:t=2:mod=
8G\L	.	.	16g/LL	.	16b\LL	.	.	.	8b\L	San-	2.r	2.r
.	.	.	16g/	.	16b\	.	.	.	.	.	.	.
8G\	.	.	16b/	.	16dd\	.	.	.	8dd\	.	.	.
!	!	!	!	!	!LO:SIC:s=16dd	!	!	!	!	!	!	!
.	.	.	16b/	.	16dd\JJ	.	.	.	.	.	.	.
!	!	!	!	!	!LO:LB:g=original	!	!	!	!	!	!	!
!	!	!	!	!	!LO:SIC:s=16gg	!	!	!	!	!	!	!
8G\J	.	.	16b/	.	16gg\LL	.	.	.	8gg\J	.	.	.
.	.	.	16b/JJ	.	16gg\JJ	.	.	.	.	.	.	.
=34	=34	=34	=34	=34	=34	=34	=34	=34	=34	=34	=34	=34
8D/L	.	.	16f#/LL	.	16a\LL	.	.	.	8a\L	.	.	.
.	.	.	16f#/	.	16a\	.	.	.	.	.	.	.
8D/	.	.	16a/	.	16dd\	.	.	.	8dd\	.	.	.
.	.	.	16a/	.	16dd\	.	.	.	.	.	.	.
8D/J	.	.	16dd/	.	16ff#\	.	.	.	8ff#\J	.	.	.
.	.	.	16dd/JJ	.	16ff#\JJ	.	.	.	.	.	.	.
!	!	!	!	!	!LO:TX:t=P:problem:wykreślony takt:mod=	!	!	!	!	!	!	!
=35	=35	=35	=35	=35	=35	=35	=35	=35	=35	=35	=35	=35
8AA/L	2	.	16cc#/LL	.	16ee/LL	.	.	.	8ee\L	.	4r	4r
.	.	.	16cc#/	.	16ee/	.	.	.	.	.	.	.
8AA/	.	.	16a/	.	16cc#/	.	.	.	8cc#\	.	.	.
.	.	.	16a/	.	16cc#/	.	.	.	.	.	.	.
8C#/J	.	.	16e/	.	16g/	.	.	.	8g\J	.	8e\	8g\
.	.	.	16e/JJ	.	16g/JJ	.	.	.	.	.	.	.
!LO:LB:g=original	!	!	!	!	!	!	!	!	!	!	!	!
=36	=36	=36	=36	=36	=36	=36	=36	=36	=36	=36	=36	=36
8D/L	2	.	8e/L	.	8g/L	.	1.r	.	8g/	.	8e\L	8g\L
8D/	3	.	8d/	.	8f#/	.	.	.	8f#/	-na	8d\J	8f#\J
!	!	!	!	!	!	!	!	!	!	!LO:MO:mod=O-	!	!
8D/J	.	.	8f#/J	.	8a/J	.	.	.	8a\	o	8r	8r
=37	=37	=37	=37	=37	=37	=37	=37	=37	=37	=37	=37	=37
!	!	!	!	!	!	!	!	!	!	!LO:MO:mod=-san-	!LO:TX:a:t=2:mod=	!LO:TX:a:t=2:mod=
8G\L	.	.	16g/LL	.	16b\LL	.	.	.	8b\L	San-	4.r	2.r
.	.	.	16g/	.	16b\	.	.	.	.	.	.	.
8G\	.	.	16b/	.	16dd\	.	.	.	8dd\	.	.	.
.	.	.	16b/	.	16dd\	.	.	.	.	.	.	.
8G\J	.	.	16b/	.	16gg\	.	.	.	8gg\J	.	.	.
.	.	.	16b/JJ	.	16gg\JJ	.	.	.	.	.	.	.
=38	=38	=38	=38	=38	=38	=38	=38	=38	=38	=38	=38	=38
8D/L	.	.	16f#/LL	.	16a\LL	.	.	.	8a\L	.	4.r	.
.	.	.	16f#/	.	16a\	.	.	.	.	.	.	.
8D/	.	.	16a/	.	16dd\	.	.	.	8dd\	.	.	.
.	.	.	16a/	.	16dd\	.	.	.	.	.	.	.
8D/J	.	.	16dd/	.	16ff#\	.	.	.	8ff#\J	.	.	.
.	.	.	16dd/JJ	.	16ff#\JJ	.	.	.	.	.	.	.
!	!	!	!LO:LB:g=original	!	!	!	!	!	!	!	!	!
=39	=39	=39	=39	=39	=39	=39	=39	=39	=39	=39	=39	=39
8AA/L	7	.	16cc#/LL	.	16ee/LL	.	.	.	8ee\L	.	4r	4r
.	.	.	16cc#/	.	16ee/	.	.	.	.	.	.	.
8AA/	.	.	16a/	.	16cc#/	.	.	.	8cc#\	.	.	.
.	.	.	16a/	.	16cc#/	.	.	.	.	.	.	.
8AA/J	.	.	16e/	.	16g/	.	.	.	8g\J	.	8e\	8g\
.	.	.	16e/JJ	.	16g/JJ	.	.	.	.	.	.	.
!	!	!	!	!	!	!	!LO:LB:g=original	!	!	!	!	!
=40	=40	=40	=40	=40	=40	=40	=40	=40	=40	=40	=40	=40
!	!	!	!LO:TX:a:t=P:problem=mixed beam:mod=	!	!LO:TX:a:t=P:problem=mixed beam:mod=	!	!	!	!	!	!	!
8AA/L	4	.	8d/L	.	8f#/L	.	4r	.	8f#/	.	8d/L	8f#\L
8AA/	3	.	8c#/	.	8e/	.	.	.	8e/	-na	8A/J	8e\J
8AA/J	5	.	8ff#\J	.	8aa\J	.	8ff#\	in	8aa\	in	8r	8r
=41	=41	=41	=41	=41	=41	=41	=41	=41	=41	=41	=41	=41
!	!	!	!	!	!LO:MO:mod=*null:null	!	!	!	!	!	!	!
*	*	*	*	*	*Xtuplet	*	*	*	*	*	*	*
!	!	!	!	!	!LO:TUP:a:problem=klamra łukowa	!	!	!	!	!	!	!
8AA/L	5 6	.	8ff#\L	.	24aa\LL	.	4.ff#\	ex-	4.aa\	ex-	8f#\L	8a\L
.	.	.	.	.	24ff#\	.	.	.	.	.	.	.
.	.	.	.	.	24a\JJ	.	.	.	.	.	.	.
!	!	!	!	!	!LO:TUP:a:problem=klamra łukowa	!	!	!	!	!	!	!
8AA/	.	.	8ff#\	.	24aa\LL	.	.	.	.	.	8f#\	8a\
.	.	.	.	.	24ff#\	.	.	.	.	.	.	.
.	.	.	.	.	24a\JJ	.	.	.	.	.	.	.
!	!	!	!	!	!LO:TUP:a:problem=klamra łukowa	!	!	!	!	!	!	!
8AA/J	.	.	8ff#\J	.	24aa\LL	.	.	.	.	.	8f#\J	8a\J
.	.	.	.	.	24ff#\	.	.	.	.	.	.	.
.	.	.	.	.	24a\JJ	.	.	.	.	.	.	.
=42	=42	=42	=42	=42	=42	=42	=42	=42	=42	=42	=42	=42
!	!	!	!	!	!LO:TUP:a:problem=klamra łukowa	!	!	!	!	!	!	!
8AA/L	7	.	8ee\L	.	24gg\LL	.	4.ee\	-cel-	4.gg\	-cel-	8e\L	8g\L
.	.	.	.	.	24ee\	.	.	.	.	.	.	.
.	.	.	.	.	24cc#\JJ	.	.	.	.	.	.	.
!	!	!	!	!	!LO:TUP:a:problem=klamra łukowa	!	!	!	!	!	!	!
8AA/	.	.	8ee\	.	24gg\LL	.	.	.	.	.	8e\	8g\
.	.	.	.	.	24ee\	.	.	.	.	.	.	.
.	.	.	.	.	24cc#\JJ	.	.	.	.	.	.	.
!	!	!	!	!	!LO:TUP:a:problem=klamra łukowa	!	!	!	!	!	!	!
8AA/J	.	.	8ee\J	.	24gg\LL	.	.	.	.	.	8e\J	8g\J
.	.	.	.	.	24ee\	.	.	.	.	.	.	.
.	.	.	.	.	24cc#\JJ	.	.	.	.	.	.	.
!	!	!	!	!	!LO:LB:g=original	!	!	!	!	!	!	!
=43	=43	=43	=43	=43	=43	=43	=43	=43	=43	=43	=43	=43
!	!	!	!	!	!LO:TUP:a:problem=klamra łukowa	!	!	!	!	!	!	!
8AA/L	6 4	.	8dd\L	.	24ff#\LL	.	4.dd\	.	4.ff#\	.	8d\L	8f#\L
.	.	.	.	.	24dd\	.	.	.	.	.	.	.
.	.	.	.	.	24a\JJ	.	.	.	.	.	.	.
!	!	!	!	!	!LO:TUP:a:problem=klamra łukowa	!	!	!	!	!	!	!
8AA/	.	.	8dd\	.	24ff#\LL	.	.	.	.	.	8d\	8f#\
.	.	.	.	.	24dd\	.	.	.	.	.	.	.
.	.	.	.	.	24a\JJ	.	.	.	.	.	.	.
!	!	!	!	!	!LO:TUP:a:problem=klamra łukowa	!	!	!	!	!	!	!
8AA/J	.	.	8dd\J	.	24ff#\LL	.	.	.	.	.	8d\J	8f#\J
.	.	.	.	.	24dd\	.	.	.	.	.	.	.
.	.	.	.	.	24a\JJ	.	.	.	.	.	.	.
!	!	!	!	!	!	!	!	!	!LO:PB;g=original	!	!	!
=44	=44	=44	=44	=44	=44	=44	=44	=44	=44	=44	=44	=44
8AA/L	4 3	.	16dd\LL	.	16ff#\LL	.	16dd\LL	.	16ff#\LL	.	8d/L	8f#\L
.	.	.	16cc#\J	.	16ee\J	.	16cc#\JJ	.	16ee\JJ	.	.	.
8AA/	.	.	8cc#\J	.	8ff#\J	.	8cc#\	-sis	8ee\	-sis	8A/J	8e\J
!	!	!	!	!	!	!	!	!	!	!LO:MO:mod=in	!	!
8AA/J	.	.	8f#/	.	8a/	.	8f#/	in	8a\	ex-	8r	8r
=45	=45	=45	=45	=45	=45	=45	=45	=45	=45	=45	=45	=45
!	!	!	!	!	!LO:TUP:a:problem=klamra łukowa	!	!	!	!	!LO:MO:mod=ex-	!LO:TX:a:t=3:mod=	!LO:TX:a:t=3:mod=
8AA/L	5 6	.	8f#/L	.	24a/LL	.	4.f#/	ex-	4.a\	-cel-	2.r	2.r
.	.	.	.	.	24f#/	.	.	.	.	.	.	.
.	.	.	.	.	24A/JJ	.	.	.	.	.	.	.
!	!	!	!	!	!LO:TUP:a:problem=klamra łukowa	!	!	!	!	!	!	!
8AA/	.	.	8f#/	.	24a/LL	.	.	.	.	.	.	.
.	.	.	.	.	24f#/	.	.	.	.	.	.	.
.	.	.	.	.	24A/JJ	.	.	.	.	.	.	.
!	!	!	!	!	!LO:TUP:a:problem=klamra łukowa	!	!	!	!	!	!	!
8AA/J	.	.	8f#/J	.	24a/LL	.	.	.	.	.	.	.
.	.	.	.	.	24f#/	.	.	.	.	.	.	.
.	.	.	.	.	24A/JJ	.	.	.	.	.	.	.
=46	=46	=46	=46	=46	=46	=46	=46	=46	=46	=46	=46	=46
!	!	!	!	!	!LO:TUP:a:problem=klamra łukowa	!	!	!	!	!LO:MO:null:mod=-cel-	!	!
8AA/L	7	.	8e/L	.	24g/LL	.	4.e/	-cel-	4.g/	.	.	.
.	.	.	.	.	24e/	.	.	.	.	.	.	.
.	.	.	.	.	24A/JJ	.	.	.	.	.	.	.
!	!	!	!	!	!LO:TUP:a:problem=klamra łukowa	!	!	!	!	!	!	!
8AA/	.	.	8e/	.	24g/LL	.	.	.	.	.	.	.
.	.	.	.	.	24e/	.	.	.	.	.	.	.
.	.	.	.	.	24A/JJ	.	.	.	.	.	.	.
!	!	!	!	!	!LO:TUP:a:problem=klamra łukowa	!	!	!	!	!	!	!
8AA/J	.	.	8e/J	.	24g/LL	.	.	.	.	.	.	.
.	.	.	.	.	24e/	.	.	.	.	.	.	.
.	.	.	.	.	24A/JJ	.	.	.	.	.	.	.
=47	=47	=47	=47	=47	=47	=47	=47	=47	=47	=47	=47	=47
!	!	!	!	!	!LO:TUP:a:problem=klamra łukowa	!	!	!	!	!	!	!
8AA/L	6 4	.	8d/L	.	24f#/LL	.	4.d/	.	4.f#/	.	4.r	4.r
.	.	.	.	.	24d/	.	.	.	.	.	.	.
.	.	.	.	.	24A/JJ	.	.	.	.	.	.	.
!	!	!	!	!	!LO:TUP:a:problem=klamra łukowa	!	!	!	!	!	!	!
8AA/	.	.	8d/	.	24f#/LL	.	.	.	.	.	.	.
.	.	.	.	.	24d/	.	.	.	.	.	.	.
.	.	.	.	.	24A/JJ	.	.	.	.	.	.	.
!	!	!	!	!	!LO:TUP:a:problem=klamra łukowa	!	!	!	!	!	!	!
8AA/J	.	.	8d/J	.	24f#/LL	.	.	.	.	.	.	.
.	.	.	.	.	24d/	.	.	.	.	.	.	.
.	.	.	.	.	24A/JJ	.	.	.	.	.	.	.
!	!	!	!	!	!	!	!	!	!	!	!LO:LB:g=original	!
=48	=48	=48	=48	=48	=48	=48	=48	=48	=48	=48	=48	=48
!LO:TX:a:t=P:problem=mixed beam:mod=	!	!	!	!	!	!	!	!	!	!	!	!
8AA/L	4	.	16d/LL	.	16f#/LL	.	16d/LL	.	16f#/LL	.	4r	4r
.	.	.	16c#/J	.	16e/J	.	16c#/JJ	.	16e/JJ	.	.	.
8A\	3_	.	8c#/J	.	8e/J	.	8c#/	-sis	8e/	-sis	.	.
8G\J	_	.	8e/	.	8cc#\	.	8e/	in	8cc#\	in	8A/	8e\
!	!	!	!	!	!	!	!	!	!	!	!	!LO:PB:g=original
=49	=49	=49	=49	=49	=49	=49	=49	=49	=49	=49	=49	=49
!	!	!	!	!	!	!	!	!	!	!LO:MO:mod=ex-	!	!
8G\L	2	.	16e/LL	.	16cc#\LL	.	4.g\	ex-	4.cc#\	Ex-	8A/L	8e\L
.	.	.	16e/	.	16cc#\	.	.	.	.	.	.	.
8G\	.	.	16e/	.	16cc#\	.	.	.	.	.	8A/	8e\
.	.	.	16e/	.	16cc#\	.	.	.	.	.	.	.
8G\J	.	.	16e/	.	16cc#\	.	.	.	.	.	8A/J	8e\J
.	.	.	16e/JJ	.	16cc#\JJ	.	.	.	.	.	.	.
!	!	!	!	!	!LO:LB:g=original	!	!	!	!	!	!	!
=50	=50	=50	=50	=50	=50	=50	=50	=50	=50	=50	=50	=50
8F#\L	6	.	16a/LL	.	16dd\LL	.	4.a\	-cel-	4.dd\	-cel-	8d\L	8f#\L
.	.	.	16a/	.	16dd\	.	.	.	.	.	.	.
8F#\	.	.	16a/	.	16dd\	.	.	.	.	.	8d\	8f#\
.	.	.	16a/	.	16dd\	.	.	.	.	.	.	.
8F#\J	.	.	16a/	.	16dd\	.	.	.	.	.	8d\J	8f#\J
.	.	.	16a/JJ	.	16dd\JJ	.	.	.	.	.	.	.
!LO:LB:g=original	!	!	!	!	!	!	!	!	!	!	!	!
=51	=51	=51	=51	=51	=51	=51	=51	=51	=51	=51	=51	=51
8G\L	6	.	16ee\LL	.	16gg\LL	.	4.ee\	.	4.gg\	.	8e\L	8g\L
.	.	.	16ee\	.	16gg\	.	.	.	.	.	.	.
8G\	.	.	16ee\	.	16gg\	.	.	.	.	.	8e\	8g\
.	.	.	16ee\	.	16gg\	.	.	.	.	.	.	.
8G\J	.	.	16ee\	.	16gg\	.	.	.	.	.	8e\J	8g\J
.	.	.	16ee\JJ	.	16gg\JJ	.	.	.	.	.	.	.
!	!	!	!LO:LB:g=original	!	!	!	!LO:LB:g=original	!	!	!	!	!
=52	=52	=52	=52	=52	=52	=52	=52	=52	=52	=52	=52	=52
8A\L	4	.	16dd\LL	.	16ff#\LL	.	4.dd\	.	4.ff#\	.	8d\L	8f#\L
.	.	.	16dd\	.	16ff#\	.	.	.	.	.	.	.
8A\	.	.	16dd\	.	16ff#\	.	.	.	.	.	8d\	8f#\
.	.	.	16dd\	.	16ff#\	.	.	.	.	.	.	.
8A\J	.	.	16dd\	.	16ff#\	.	.	.	.	.	8d\J	8f#\J
.	.	.	16dd\JJ	.	16ff#\JJ	.	.	.	.	.	.	.
=53	=53	=53	=53	=53	=53	=53	=53	=53	=53	=53	=53	=53
8AA/L	3	.	16cc#\LL	.	16ee\LL	.	4.cc#\	.	4.ee\	.	8A/L	8e\L
.	.	.	16cc#\	.	16ee\	.	.	.	.	.	.	.
8AA/	.	.	16cc#\	.	16ee\	.	.	.	.	.	8A/	8e\
.	.	.	16cc#\	.	16ee\	.	.	.	.	.	.	.
8AA/J	.	.	16cc#\	.	16ee\	.	.	.	.	.	8A/J	8e\J
.	.	.	16cc#\JJ	.	16ee\JJ	.	.	.	.	.	.	.
=54	=54	=54	=54	=54	=54	=54	=54	=54	=54	=54	=54	=54
!	!	!LO:DY:a	!	!	!	!	!	!	!	!	!	!
!	!	!LO:MO:mod=.	!	!	!	!	!	!	!	!	!	!
8D\L	.	f	4dd\	.	4dd\	.	4dd\	-sis	4dd\	-sis	4F#/	4d\
8F#\	.	.	.	.	.	.	.	.	.	.	.	.
8D\J	.	.	8f#/	.	8a/	.	8r	.	8r	.	8f#\	8a\
=55	=55	=55	=55	=55	=55	=55	=55	=55	=55	=55	=55	=55
!	!	!LO:MO:null:mod=f	!	!LO:DY:a	!	!LO:DY:a	!LO:TX:a:t=13:mod=	!	!LO:TX:a:t=13:mod=	!	!	!
8G\L	.	.	16g/LL	f	16b\LL	f	1.r	.	1.r	.	8g\	8b\
.	.	.	16g/	.	16b\	.	.	.	.	.	.	.
8G\	.	.	16b/	.	16dd\	.	.	.	.	.	8r	8r
.	.	.	16b/	.	16dd\	.	.	.	.	.	.	.
8G\J	.	.	16b/	.	16gg\	.	.	.	.	.	8r	8r
.	.	.	16b/JJ	.	16gg\JJ	.	.	.	.	.	.	.
=56	=56	=56	=56	=56	=56	=56	=56	=56	=56	=56	=56	=56
8D/L	.	.	16f#/LL	.	16a\LL	.	.	.	.	.	8f#\	8a\
.	.	.	16f#/	.	16a\	.	.	.	.	.	.	.
8D/	.	.	16a/	.	16dd\	.	.	.	.	.	8r	8r
.	.	.	16a/	.	16dd\	.	.	.	.	.	.	.
8D/J	.	.	16dd/	.	16ff#\	.	.	.	.	.	8r	8r
.	.	.	16dd/JJ	.	16ff#\JJ	.	.	.	.	.	.	.
=57	=57	=57	=57	=57	=57	=57	=57	=57	=57	=57	=57	=57
8AA/L	7	.	16cc#/LL	.	16ee\LL	.	.	.	.	.	8e\	8g\
.	.	.	16cc#/	.	16ee\	.	.	.	.	.	.	.
8AA/	.	.	16a/	.	16cc#\	.	.	.	.	.	8r	8r
.	.	.	16a/	.	16cc#\	.	.	.	.	.	.	.
8C#/J	.	.	16e/	.	16g\	.	.	.	.	.	8e\	8g\
.	.	.	16e/JJ	.	16g\JJ	.	.	.	.	.	.	.
=58	=58	=58	=58	=58	=58	=58	=58	=58	=58	=58	=58	=58
!LO:MO:mod=!null:null	!	!	!	!	!	!	!	!	!	!	!	!
!LO:N:vis=4	!	!	!	!	!	!	!	!	!	!	!	!
8D/	2	.	8e/L	.	8g/L	.	.	.	.	.	8e\L	8g\L
!LO:MO:mod=!null:null	!	!	!	!	!	!	!	!	!	!	!	!
!LO:N:vis=4	!	!	!	!	!	!	!	!	!	!	!	!
8D/	3	.	8d/	.	8f#/	.	.	.	.	.	8d\	8f#\
!LO:MO:mod=!null:null	!	!	!	!	!	!	!	!	!	!	!	!
!LO:N:vis=4	!	!	!	!	!	!	!	!	!	!	!	!
8D/	.	.	8f#/J	.	8a/J	.	.	.	.	.	8f#\J	8a\J
=59	=59	=59	=59	=59	=59	=59	=59	=59	=59	=59	=59	=59
8G\L	.	.	16g/LL	.	16b\LL	.	1.r	.	1.r	.	8g\	8b\
.	.	.	16b/	.	16b\	.	.	.	.	.	.	.
8G\	.	.	16b/	.	16dd\	.	.	.	.	.	8r	8r
.	.	.	16b/	.	16dd\	.	.	.	.	.	.	.
8G\J	.	.	16b/	.	16gg\	.	.	.	.	.	8r	8r
.	.	.	16b/JJ	.	16gg\JJ	.	.	.	.	.	.	.
=60	=60	=60	=60	=60	=60	=60	=60	=60	=60	=60	=60	=60
8D/L	.	.	16f#/LL	.	16a\LL	.	.	.	.	.	8f#\	8a\
.	.	.	16f#/	.	16a\	.	.	.	.	.	.	.
8D/	.	.	16a/	.	16dd\	.	.	.	.	.	8r	8r
.	.	.	16a/	.	16dd\	.	.	.	.	.	.	.
8D/J	.	.	16dd/	.	16ff#\	.	.	.	.	.	8r	8r
.	.	.	16dd/JJ	.	16ff#\JJ	.	.	.	.	.	.	.
!	!	!	!	!	!LO:LB:g=original	!	!	!	!	!	!	!
=61	=61	=61	=61	=61	=61	=61	=61	=61	=61	=61	=61	=61
!	!	!	!	!	!	!	!	!	!	!	!LO:TX:t=P:problem:brak taktu:mod=	!
!	!	!	!	!	!	!	!	!	!	!	!LO:MO:mod=8e@	!
8AA/L	7	.	16cc#/LL	.	16ee/LL	.	.	.	.	.	4.ryy	8g\
.	.	.	16cc#/	.	16ee/	.	.	.	.	.	.	.
!	!	!	!	!	!	!	!	!	!	!	!LO:MO:null:mod=8r@	!
8AA/	.	.	16a/	.	16cc#/	.	.	.	.	.	.	8r
.	.	.	16a/	.	16cc#/	.	.	.	.	.	.	.
!	!	!	!	!	!	!	!	!	!	!	!LO:MO:null:mod=8e@	!
8C#/J	.	.	16e/	.	16g/	.	.	.	.	.	.	8g\
.	.	.	16e/JJ	.	16g/JJ	.	.	.	.	.	.	.
!	!	!	!LO:LB:g=original	!	!	!	!	!	!	!	!	!
=62	=62	=62	=62	=62	=62	=62	=62	=62	=62	=62	=62	=62
8AA/L	.	.	16e/LL	.	16g/LL	.	.	.	.	.	8e\L	8g\L
.	.	.	16e/	.	16g/	.	.	.	.	.	.	.
8AA/	.	.	16d/	.	16f#/	.	.	.	.	.	8d\	8f#\
.	.	.	16d/	.	16f#/	.	.	.	.	.	.	.
!	!	!	!	!	!	!	!	!	!	!	!	!LO:SIC:v:s=8aJ
8D/J	.	.	16f#/	.	16a/	.	.	.	.	.	8f#\J	8g\J
.	.	.	16f#/JJ	.	16a/JJ	.	.	.	.	.	.	.
=63	=63	=63	=63	=63	=63	=63	=63	=63	=63	=63	=63	=63
8D\L	.	.	16g/LL	.	16b/LL	.	1.r	.	1.r	.	8g\L	8b\L
.	.	.	16g/	.	16b/	.	.	.	.	.	.	.
8D\	.	.	16f#/	.	16a/	.	.	.	.	.	8f#\	8a\
.	.	.	16f#/	.	16a/	.	.	.	.	.	.	.
8E\J	6	.	16g/	.	16cc#/	.	.	.	.	.	8e\J	8cc#\J
.	.	.	16g/JJ	.	16cc#/JJ	.	.	.	.	.	.	.
!	!	!	!	!	!	!	!	!	!	!	!LO:LB:g=original	!
=64	=64	=64	=64	=64	=64	=64	=64	=64	=64	=64	=64	=64
8F#\L	5	.	16a/LL	.	16dd\LL	.	.	.	.	.	8f#\L	8dd\L
.	.	.	16a/	.	16dd\	.	.	.	.	.	.	.
8F#\	.	.	16a/	.	16dd\	.	.	.	.	.	8f#\	8dd\
.	.	.	16a/	.	16dd\	.	.	.	.	.	.	.
8F#\J	.	.	16a/	.	16dd\	.	.	.	.	.	8f#\J	8dd\J
.	.	.	16a/JJ	.	16dd\JJ	.	.	.	.	.	.	.
!LO:PB:g=original	!	!	!	!	!	!	!	!	!	!	!	!
=65	=65	=65	=65	=65	=65	=65	=65	=65	=65	=65	=65	=65
8G\L	6	.	16e/LL	.	16g/LL	.	.	.	.	.	8e\L	8g\L
.	.	.	16e/	.	16g/	.	.	.	.	.	.	.
8G\	.	.	16e/	.	16g/	.	.	.	.	.	8e\	8g\
.	.	.	16e/	.	16g/	.	.	.	.	.	.	.
8G\J	.	.	16e/	.	16g/	.	.	.	.	.	8e\J	8g\J
.	.	.	16e/JJ	.	16g/JJ	.	.	.	.	.	.	.
!	!	!	!	!	!	!	!	!	!	!	!	!LO:LB:g=original
=66	=66	=66	=66	=66	=66	=66	=66	=66	=66	=66	=66	=66
8A\L	4	.	16d/LL	.	16f#/LL	.	.	.	.	.	8d\L	8f#\L
.	.	.	16d/	.	16f#/	.	.	.	.	.	.	.
8A\	.	.	16d/	.	16f#/	.	.	.	.	.	8d\	8f#\
.	.	.	16d/	.	16f#/	.	.	.	.	.	.	.
8A\J	.	.	16d/	.	16f#/	.	.	.	.	.	8d\J	8f#\J
.	.	.	16d/JJ	.	16f#/JJ	.	.	.	.	.	.	.
=67	=67	=67	=67	=67	=67	=67	=67	=67	=67	=67	=67	=67
8AA/L	3	.	16c#/LL	.	16e/LL	.	4.r	.	4.r	.	8A/L	8e\L
.	.	.	16c#/	.	16e/	.	.	.	.	.	.	.
8AA/	.	.	16c#/	.	16e/	.	.	.	.	.	8A/	8e\
.	.	.	16c#/	.	16e/	.	.	.	.	.	.	.
8AA/J	.	.	16c#/	.	16e/	.	.	.	.	.	8A/J	8e\J
.	.	.	16c#/JJ	.	16e/JJ	.	.	.	.	.	.	.
=68	=68	=68	=68	=68	=68	=68	=68	=68	=68	=68	=68	=68
8D\L	.	.	4d/	.	4d/	.	4r	.	4r	.	4F#/	4d\
8F#\	.	.	.	.	.	.	.	.	.	.	.	.
!	!	!	!	!	!	!	!	!	!	!	!LO:MO:mod=!null:null	!
!	!	!	!	!	!	!	!	!LO:MO:mod=O-	!	!LO:MO:mod=O-	!LO:N:vis=4	!
8D\J	.	.	8r	.	8a/	.	8a\	O	8a\	O	8r	8r
!	!	!	!	!	!	!	!	!	!LO:LB:g=original	!	!	!
=69	=69	=69	=69	=69	=69	=69	=69	=69	=69	=69	=69	=69
!	!	!LO:DY:a	!	!LO:DY:a	!	!LO:DY:a	!	!LO:MO:mod=-san-	!	!LO:MO:mod=-san-	!	!
8D/L	.	p	4dd\	p	8dd\L	p	4dd\	San-	8dd\L	San-	8d\	8f#\
8D/	.	.	.	.	8ff#\	.	.	.	8ff#\J	.	8r	8r
8D/J	.	.	8ff#\	.	8aa\J	.	8ff#\	-na	8aa\	-na	8r	8r
=70	=70	=70	=70	=70	=70	=70	=70	=70	=70	=70	=70	=70
!	!	!	!	!	!	!	!	!	!	!	!LO:TX:t=P:problem:brak taktu:mod=	!
!	!	!	!	!	!	!	!	!	!	!	!LO:MO:mod=8d@	!
8D/L	.	.	16dd\LL	.	16dd\LL	.	4dd\	in	8dd\	in	4.ryy	8f#\
.	.	.	16dd\	.	16dd\	.	.	.	.	.	.	.
!	!	!	!	!	!	!	!	!	!	!LO:MO:mod=ex-	!LO:MO:null:mod=8r@	!
8D/	.	.	16dd\	.	16ff#\	.	.	.	8ff#\L	Ex-	.	8r
.	.	.	16dd\	.	16ff#\	.	.	.	.	.	.	.
!	!	!	!	!	!	!	!	!	!	!	!LO:MO:null:mod=8r@	!
8D/J	.	.	16ff#\	.	16aa\	.	8ff#\	ex-	8aa\J	.	.	8r
.	.	.	16ff#\JJ	.	16aa\JJ	.	.	.	.	.	.	.
!	!	!	!	!	!LO:LB:g=original	!	!	!	!	!	!	!
=71	=71	=71	=71	=71	=71	=71	=71	=71	=71	=71	=71	=71
8A\L	7	.	16ee\LL	.	16gg\LL	.	8ee\L	-cel-	8gg\L	-cel-	8e\L	8g\L
.	.	.	16ee\	.	16gg\	.	.	.	.	.	.	.
8A\	6	.	16dd\	.	16ff#\	.	8dd\	.	8ff#\	.	8d\	8f#\
.	.	.	16dd\	.	16ff#\	.	.	.	.	.	.	.
8A\J	5	.	16cc#\	.	16ee\	.	8cc#\J	.	8ee\J	.	8A\J	8e\J
.	.	.	16cc#\JJ	.	16ee\JJ	.	.	.	.	.	.	.
!	!	!	!LO:LB:g=original	!	!	!	!	!	!	!	!	!
=72	=72	=72	=72	=72	=72	=72	=72	=72	=72	=72	=72	=72
!LO:MO:mod=!null:null	!	!	!	!	!	!	!	!	!	!	!	!
!LO:N:vis=8	!	!	!	!	!	!	!	!	!	!	!	!
16d\LL	.	.	16dd/LL	.	16dd/LL	.	4dd\	-sis	4dd\	-sis	16d/LL	16d/LL
!LO:MO:mod=!null:null	!	!	!	!	!	!	!	!	!	!	!	!
!LO:N:vis=8	!	!	!	!	!	!	!	!	!	!	!	!
16d\	.	.	16dd/	.	16dd/	.	.	.	.	.	16d/	16d/
!LO:MO:mod=!null:null	!	!	!	!	!	!	!	!	!	!	!	!
!LO:N:vis=8	!	!	!	!	!	!	!	!	!	!	!	!
16F#\	.	.	16f#/	.	16f#/	.	.	.	.	.	16F#/	16F#/
!LO:MO:mod=!null:null	!	!	!	!	!	!	!	!	!	!	!	!
!LO:N:vis=8	!	!	!	!	!	!	!	!	!	!	!	!
16F#\	.	.	16f#/	.	16f#/	.	.	.	.	.	16F#/	16F#/
!LO:MO:mod=!null:null	!	!	!	!	!	!	!	!	!	!	!	!
!LO:N:vis=8	!	!	!	!	!	!	!	!	!	!	!	!
16A\	.	.	16a/	.	16a/	.	8r	.	8r	.	16A/	16A/
!LO:MO:mod=!null:null	!	!	!	!	!	!	!	!	!	!	!	!
!LO:N:vis=8	!	!	!	!	!	!	!	!	!	!	!	!
16A\JJ	.	.	16a/JJ	.	16a/JJ	.	.	.	.	.	16A/JJ	16A/JJ
=73	=73	=73	=73	=73	=73	=73	=73	=73	=73	=73	=73	=73
8D\L	.	.	4d/	.	4d/	.	4r	.	4r	.	4D/	4D/
8F#\	.	.	.	.	.	.	.	.	.	.	.	.
8D\J	.	.	8f#/	.	8a/	.	8f#/	in	8a\	in	8r	8r
=74	=74	=74	=74	=74	=74	=74	=74	=74	=74	=74	=74	=74
!	!	!	!	!	!LO:TUP:a:problem=klamra łukowa	!	!	!	!	!LO:MO:mod=ex-	!LO:TX:a:t=2:mod=	!LO:TX:a:t=2:mod=
8D/L	.	.	8g/L	.	24b/LL	.	8g/L	ex-	8b\L	Ex-	2.r	2.r
.	.	.	.	.	24g/	.	.	.	.	.	.	.
.	.	.	.	.	24d/JJ	.	.	.	.	.	.	.
!	!	!	!	!	!LO:TUP:a:problem=klamra łukowa	!	!	!	!	!	!	!
8D/	.	.	8f#/	.	24b/LL	.	8f#/	.	8a\	.	.	.
.	.	.	.	.	24g/	.	.	.	.	.	.	.
.	.	.	.	.	24d/JJ	.	.	.	.	.	.	.
!	!	!	!	!	!LO:TUP:a:problem=klamra łukowa	!	!	!	!	!	!	!
8D/J	.	.	8a/J	.	24ccn/LL	.	8a/J	.	8ccn\J	.	.	.
.	.	.	.	.	24a/	.	.	.	.	.	.	.
.	.	.	.	.	24d/JJ	.	.	.	.	.	.	.
=75	=75	=75	=75	=75	=75	=75	=75	=75	=75	=75	=75	=75
!	!	!	!	!	!LO:TUP:a:problem=klamra łukowa	!	!	!	!	!	!	!
8D/L	.	.	8g/L	.	24b/LL	.	8g/L	-cel-	8b\L	-cel-	.	.
.	.	.	.	.	24g/	.	.	.	.	.	.	.
.	.	.	.	.	24d/JJ	.	.	.	.	.	.	.
!	!	!	!	!	!LO:TUP:a:problem=klamra łukowa	!	!	!	!	!	!	!
8D/	.	.	8f#/	.	24a/LL	.	8f#/	.	8a\	.	.	.
.	.	.	.	.	24f#/	.	.	.	.	.	.	.
.	.	.	.	.	24d/JJ	.	.	.	.	.	.	.
8D/J	.	.	8b/J	.	8dd\	.	8b/J	.	8dd\J	.	.	.
!	!	!	!	!	!	!	!LO:LB:g=original	!	!	!	!	!
=76	=76	=76	=76	=76	=76	=76	=76	=76	=76	=76	=76	=76
!	!	!	!LO:MO:mod=!null:null	!	!	!	!	!	!	!	!	!
!	!	!	!LO:N:vis=8	!	!	!	!	!	!	!	!	!
8F#\L	.	.	16a/LL	.	16ccn\LL	.	4.a\	.	4.ccn\	.	4.a\	4.ccX\
!	!	!	!LO:MO:mod=!null:null	!	!	!	!	!	!	!	!	!
!	!	!	!LO:N:vis=8	!	!	!	!	!	!	!	!	!
.	.	.	16a/	.	16cc\	.	.	.	.	.	.	.
!	!	!	!LO:MO:mod=!null:null	!	!	!	!	!	!	!	!	!
!	!	!	!LO:N:vis=8	!	!	!	!	!	!	!	!	!
8F#\	.	.	16a/	.	16cc\	.	.	.	.	.	.	.
!	!	!	!LO:MO:mod=!null:null	!	!	!	!	!	!	!	!	!
!	!	!	!LO:N:vis=8	!	!	!	!	!	!	!	!	!
.	.	.	16a/	.	16cc\	.	.	.	.	.	.	.
!	!	!	!LO:MO:mod=!null:null	!	!	!	!	!	!	!	!	!
!	!	!	!LO:N:vis=8	!	!	!	!	!	!	!	!	!
8F#\J	.	.	16a/	.	16cc\	.	.	.	.	.	.	.
!	!	!	!LO:MO:mod=!null:null	!	!	!	!	!	!	!	!	!
!	!	!	!LO:N:vis=8	!	!	!	!	!	!	!	!	!
.	.	.	16a/JJ	.	16cc\JJ	.	.	.	.	.	.	.
=77	=77	=77	=77	=77	=77	=77	=77	=77	=77	=77	=77	=77
!LO:TX:a:t=P:problem=mixed beam:mod=	!	!	!	!	!LO:SIC:v:s=16ccn\LL	!	!	!	!LO:SIC:v:s=16ccn\LL	!	!	!
8G\L	.	.	16a/LL	.	16cc#\LL	.	16a\LL	.	16cc#\LL	.	8a\L	8ccX\L
.	.	.	16g/J	.	16b\J	.	16g\JJ	.	16b\JJ	.	.	.
8GG/	.	.	8g/J	.	8b\J	.	8g\	-sis	8b\	-sis	8g\J	8b\J
8BB/J	.	.	8r	.	8b/	.	8g#X/	in	8b\	in	8r	8r
!LO:LB:g=original	!	!	!	!	!	!	!	!	!	!	!	!
=78	=78	=78	=78	=78	=78	=78	=78	=78	=78	=78	=78	=78
!	!	!	!	!	!LO:TUP:a:problem=klamra łukowa	!	!	!	!	!LO:TX:a:t=2:mod=	!	!LO:TX:a:t=2:mod=
8E\L	.	.	8a/L	.	24cc#X/LL	.	8a\L	ex-	8cc#X\L	ex-	2.r	2.r
.	.	.	.	.	24a/	.	.	.	.	.	.	.
.	.	.	.	.	24e/JJ	.	.	.	.	.	.	.
!	!	!	!	!	!LO:TUP:a:problem=klamra łukowa	!	!	!	!	!	!	!
8E\	.	.	8g#X/	.	24b/LL	.	8g#X\	.	8b\	.	.	.
.	.	.	.	.	24g#X/	.	.	.	.	.	.	.
.	.	.	.	.	24d/JJ	.	.	.	.	.	.	.
!	!	!	!	!	!LO:TUP:a:problem=klamra łukowa	!	!	!	!	!	!	!
8E\J	.	.	8b/J	.	24dd/LL	.	8b\J	.	8dd\J	.	.	.
.	.	.	.	.	24b/	.	.	.	.	.	.	.
.	.	.	.	.	24e/JJ	.	.	.	.	.	.	.
=79	=79	=79	=79	=79	=79	=79	=79	=79	=79	=79	=79	=79
!	!	!	!	!	!LO:TUP:a:problem=klamra łukowa	!	!	!	!	!	!	!
8E\L	.	.	8a/L	.	24cc#/LL	.	8a\L	-cel-	8cc#\L	-cel-	.	.
.	.	.	.	.	24a/	.	.	.	.	.	.	.
.	.	.	.	.	24e/JJ	.	.	.	.	.	.	.
!	!	!	!	!	!LO:TUP:a:problem=klamra łukowa	!	!	!	!	!	!	!
8E\	.	.	8g#X/	.	24b/LL	.	8g#X\	.	8b\	.	.	.
.	.	.	.	.	24g#X/	.	.	.	.	.	.	.
.	.	.	.	.	24e/JJ	.	.	.	.	.	.	.
8E\J	.	.	8cc#/J	.	8ee\	.	8cc#\J	.	8ee\J	.	.	.
!	!	!	!	!	!	!	!	!	!LO:LB:g=original	!	!	!
=80	=80	=80	=80	=80	=80	=80	=80	=80	=80	=80	=80	=80
8G#X\L	.	.	16b/LL	.	16dd\LL	.	4.b\	.	4.dd\	.	4.b\	4.dd\
.	.	.	16b/	.	16dd\	.	.	.	.	.	.	.
8G#\	.	.	16b/	.	16dd\	.	.	.	.	.	.	.
.	.	.	16b/	.	16dd\	.	.	.	.	.	.	.
8G#\J	.	.	16b/	.	16dd\	.	.	.	.	.	.	.
.	.	.	16b/JJ	.	16dd\JJ	.	.	.	.	.	.	.
=81	=81	=81	=81	=81	=81	=81	=81	=81	=81	=81	=81	=81
8A\L	4	.	16b\LL	.	16dd\LL	.	16b\LL	.	16dd\LL	.	8b\L	8dd\L
.	.	.	16a\J	.	16cc#\J	.	16a\JJ	.	16cc#\JJ	.	.	.
8A\	5	.	8a\J	.	8cc#\J	.	8a\	-sis	8cc#\	-sis	8a\J	8cc#\J
8A\J	2	.	8dd\	.	8ff#\	.	8dd\	in	8ff#\	in	8r	8r
=82	=82	=82	=82	=82	=82	=82	=82	=82	=82	=82	=82	=82
!	!	!	!	!	!LO:TUP:a:problem=klamra łukowa	!	!	!	!	!	!	!
8A\L	4	.	8dd\L	.	24ff#\LL	.	8dd\L	ex-	8ff#\L	ex-	8d\L	8f#\L
.	.	.	.	.	24dd\	.	.	.	.	.	.	.
.	.	.	.	.	24a\JJ	.	.	.	.	.	.	.
!	!	!	!	!	!LO:TUP:a:problem=klamra łukowa	!	!	!	!	!	!	!
8A\	5	.	8cc#\	.	24ee\LL	.	8cc#\	.	8ee\	.	8A\	8e\
.	.	.	.	.	24cc#\	.	.	.	.	.	.	.
.	.	.	.	.	24a\JJ	.	.	.	.	.	.	.
!	!	!	!	!	!LO:TUP:a:problem=klamra łukowa	!	!	!	!	!	!	!
8A\J	2	.	8ee\J	.	24gg\LL	.	8ee\J	.	8gg\J	.	8e\J	8g\J
.	.	.	.	.	24ee\	.	.	.	.	.	.	.
.	.	.	.	.	24a\JJ	.	.	.	.	.	.	.
=83	=83	=83	=83	=83	=83	=83	=83	=83	=83	=83	=83	=83
!	!	!	!	!	!LO:TUP:a:problem=klamra łukowa	!	!	!	!	!	!	!
8A\L	4	.	8dd\L	.	24ff#\LL	.	8dd\L	-cel-	8ff#\L	-cel-	8d\L	8f#\L
.	.	.	.	.	24dd\	.	.	.	.	.	.	.
.	.	.	.	.	24a\JJ	.	.	.	.	.	.	.
!	!	!	!	!	!LO:TUP:a:problem=klamra łukowa	!	!	!	!	!	!	!
8A\	5	.	8cc#\	.	24ee\LL	.	8cc#\	.	8ee\	.	8A\	8e\
.	.	.	.	.	24cc#\	.	.	.	.	.	.	.
.	.	.	.	.	24a\JJ	.	.	.	.	.	.	.
8A\J	2	.	8ff#\J	.	8aa\	.	8ff#\J	.	8aa\J	.	8f#\J	8a\J
!	!	!	!	!	!	!	!	!	!	!	!LO:LB:g=original	!
=84	=84	=84	=84	=84	=84	=84	=84	=84	=84	=84	=84	=84
!	!	!	!	!	!LO:TUP:a:problem=klamra łukowa	!	!	!	!	!	!	!
8A\L	8	.	8ff#\L	.	24aa\LL	.	8ff#\L	.	8aa\L	.	8f#\L	8a\L
.	.	.	.	.	24ff#\	.	.	.	.	.	.	.
.	.	.	.	.	24a\JJ	.	.	.	.	.	.	.
!	!	!	!	!	!LO:TUP:a:problem=klamra łukowa	!	!	!	!	!	!	!
8A\	2	.	8ee\	.	24gg\LL	.	8ee\	.	8gg\	.	8e\	8g\
.	.	.	.	.	24ee\	.	.	.	.	.	.	.
.	.	.	.	.	24a\JJ	.	.	.	.	.	.	.
!	!	!	!	!	!LO:TUP:a:problem=klamra łukowa	!	!	!	!	!	!	!
8A\J	6	.	8dd\J	.	24ff#\LL	.	8dd\J	.	8ff#\J	.	8d\J	8f#\J
.	.	.	.	.	24dd\	.	.	.	.	.	.	.
.	.	.	.	.	24a\JJ	.	.	.	.	.	.	.
!	!	!	!LO:LB:g=original	!	!	!	!	!	!	!	!	!
=85	=85	=85	=85	=85	=85	=85	=85	=85	=85	=85	=85	=85
!LO:TX:a:t=P:problem=mixed beam:mod=	!	!	!	!	!	!	!	!	!	!	!	!
8A\L	4	.	16dd\LL	.	16ff#\LL	.	16dd\LL	.	16ff#\LL	.	8d/L	8f#\L
.	.	.	16cc#\J	.	16ee\J	.	16cc#\JJ	.	16ee\JJ	.	.	.
8A\	3	.	8cc#\J	.	8ee\J	.	8cc#\	-sis	8ee\	-sis	8A/J	8e\J
8AA/J	.	.	8d/	.	8f#/	.	8f#/	in	8dd\	in	8r	8r
=86	=86	=86	=86	=86	=86	=86	=86	=86	=86	=86	=86	=86
!	!	!	!	!	!LO:TUP:a:problem=klamra łukowa	!	!	!LO:MO:mod=ex-	!	!	!LO:TX:a:t=3:mod=	!LO:TX:a:t=3:mod=
8AA/L	4	.	8d/L	.	24f#/LL	.	8f#/L	cel-	8dd\L	ex-	2.r	2.r
.	.	.	.	.	24d/	.	.	.	.	.	.	.
.	.	.	.	.	24A/JJ	.	.	.	.	.	.	.
!	!	!	!	!	!LO:TUP:a:problem=klamra łukowa	!	!	!	!	!	!	!
8AA/	3	.	8c#/	.	24e/LL	.	8e/	.	8cc#\	.	.	.
.	.	.	.	.	24c#/	.	.	.	.	.	.	.
.	.	.	.	.	24A/JJ	.	.	.	.	.	.	.
!	!	!	!	!	!LO:TUP:a:problem=klamra łukowa	!	!	!	!	!	!	!
8AA/J	2	.	8e/J	.	24g/LL	.	8g/J	.	8ee\J	.	.	.
.	.	.	.	.	24d/	.	.	.	.	.	.	.
.	.	.	.	.	24A/JJ	.	.	.	.	.	.	.
!	!	!	!	!	!LO:LB:g=original	!	!LO:LB:g=original	!	!	!	!	!
=87	=87	=87	=87	=87	=87	=87	=87	=87	=87	=87	=87	=87
!	!	!	!	!	!	!	!	!LO:MO:null:mod=-cel-	!	!	!	!
8AA/L	4	.	8d/L	.	24f#/LL	.	8f#/L	.	8dd\L	-cel-	.	.
.	.	.	.	.	24d/	.	.	.	.	.	.	.
.	.	.	.	.	24A/JJ	.	.	.	.	.	.	.
8AA/	3	.	8c#/	.	24e/LL	.	8e/	.	8cc#\	.	.	.
.	.	.	.	.	24c#/	.	.	.	.	.	.	.
.	.	.	.	.	24A/JJ	.	.	.	.	.	.	.
8AA/J	2	.	8f#/J	.	8a/	.	8a/J	.	8ff#\J	.	.	.
=88	=88	=88	=88	=88	=88	=88	=88	=88	=88	=88	=88	=88
!	!	!	!	!	!LO:TUP:a:problem=klamra łukowa	!	!	!	!	!	!	!
8AA/L	8	.	8f#/L	.	24a/LL	.	8a\L	.	8ff#\L	.	4.r	4.r
.	.	.	.	.	24f#/	.	.	.	.	.	.	.
.	.	.	.	.	24A/JJ	.	.	.	.	.	.	.
!	!	!	!	!	!LO:TUP:a:problem=klamra łukowa	!	!	!	!	!	!	!
8AA/	7	.	8e/	.	24g/LL	.	8g\	.	8ee\	.	.	.
.	.	.	.	.	24e/	.	.	.	.	.	.	.
.	.	.	.	.	24A/JJ	.	.	.	.	.	.	.
!	!	!	!	!	!LO:TUP:a:problem=klamra łukowa	!	!	!	!	!	!	!
8AA/J	6	.	8d/J	.	24f#/LL	.	8f#\J	.	8dd\J	.	.	.
.	.	.	.	.	24d/	.	.	.	.	.	.	.
.	.	.	.	.	24A/JJ	.	.	.	.	.	.	.
!	!	!	!	!	!	!	!	!	!	!	!	!LO:LB:g=original
=89	=89	=89	=89	=89	=89	=89	=89	=89	=89	=89	=89	=89
!LO:TX:a:t=P:problem=mixed beam:mod=	!	!	!	!	!	!	!	!	!	!	!	!
8AA\L	4	.	16d/LL	.	16f#/LL	.	16f#/LL	.	16dd\LL	.	4r	4r
.	3_	.	16c#/J	.	16e/J	.	16e/JJ	.	16cc#\JJ	.	.	.
8A\	.	.	8c#/J	.	8e/J	.	8e/	-sis	8cc#\	-sis	.	.
8Gn\J	.	.	8e/	.	8cc#\	.	8e/	in	8cc#\	in	8A/	8e\
!	!	!	!	!	!	!	!	!	!LO:LB:g=original	!	!	!
=90	=90	=90	=90	=90	=90	=90	=90	=90	=90	=90	=90	=90
8F#\L	6	.	16a/LL	.	16dd\LL	.	4.a\	ex-	4.dd\	ex-	8d\L	8f#\L
.	.	.	16a/	.	16dd\	.	.	.	.	.	.	.
8F#\	.	.	16a/	.	16dd\	.	.	.	.	.	8d\	8f#\
.	.	.	16a/	.	16dd\	.	.	.	.	.	.	.
8F#\J	.	.	16a/	.	16dd\	.	.	.	.	.	8d\J	8f#\J
.	.	.	16a/JJ	.	16dd\JJ	.	.	.	.	.	.	.
!LO:LB:g=original	!	!	!	!	!	!	!	!	!	!	!	!
=91	=91	=91	=91	=91	=91	=91	=91	=91	=91	=91	=91	=91
!	!	!	!	!	!	!	!	!LO:MO:null:mod=-cel-	!	!	!	!
8G\L	6	.	16ee\LL	.	16gg\LL	.	4.ee\	.	4.gg\	-cel-	8e\L	8g\L
.	.	.	16ee\	.	16gg\	.	.	.	.	.	.	.
8G\	.	.	16ee\	.	16gg\	.	.	.	.	.	8e\	8g\
.	.	.	16ee\	.	16gg\	.	.	.	.	.	.	.
8G\J	.	.	16ee\	.	16gg\	.	.	.	.	.	8e\J	8g\J
.	.	.	16ee\JJ	.	16gg\JJ	.	.	.	.	.	.	.
=92	=92	=92	=92	=92	=92	=92	=92	=92	=92	=92	=92	=92
8A\L	4	.	16dd\LL	.	16ff#\LL	.	4.dd\	.	4.ff#\	.	8d\L	8f#\L
.	.	.	16dd\	.	16ff#\	.	.	.	.	.	.	.
8A\	.	.	16dd\	.	16ff#\	.	.	.	.	.	8d\	8f#\
.	.	.	16dd\	.	16ff#\	.	.	.	.	.	.	.
8A\J	.	.	16dd\	.	16ff#\	.	.	.	.	.	8d\J	8f#\J
.	.	.	16dd\JJ	.	16ff#\JJ	.	.	.	.	.	.	.
=93	=93	=93	=93	=93	=93	=93	=93	=93	=93	=93	=93	=93
8AA/L	3	.	16cc#\LL	.	16ee\LL	.	4.cc#\	.	4.ee\	.	8A/L	8e\L
.	.	.	16cc#\	.	16ee\	.	.	.	.	.	.	.
8AA/	.	.	16cc#\	.	16ee\	.	.	.	.	.	8A/	8e\
.	.	.	16cc#\	.	16ee\	.	.	.	.	.	.	.
8AA/J	.	.	16cc#\	.	16ee\	.	.	.	.	.	8A/J	8e\J
.	.	.	16cc#\JJ	.	16ee\JJ	.	.	.	.	.	.	.
=94	=94	=94	=94	=94	=94	=94	=94	=94	=94	=94	=94	=94
!	!	!	!	!	!	!LO:DY:a	!	!	!	!	!	!
!	!	!	!	!	!	!LO:MO:mod=.	!	!	!	!	!	!
8D\L	.	.	4dd\	.	4dd\	f	4dd\	-sis	4dd\	-sis	4F#/	4d\
8F#\	.	.	.	.	.	.	.	.	.	.	.	.
8D\J	.	.	8ff#\	.	8aa\	.	8r	.	8r	.	8f#\	8a\
=95	=95	=95	=95	=95	=95	=95	=95	=95	=95	=95	=95	=95
!	!	!LO:DY:a	!	!LO:DY:a	!LO:TX:a:t=P:problem=mixed beam:mod=	!LO:MO:null:mod=f	!LO:TX:a:t=12:mod=	!	!LO:TX:a:t=12:mod=	!	!	!
8A\L	.	f	16ff#\LL	f	16aa\LL	.	1.r	.	1.r	.	4.f#\	4.a\
.	.	.	16a\	.	16a/	.	.	.	.	.	.	.
8A\	.	.	16a\	.	16a/	.	.	.	.	.	.	.
.	.	.	16ff#\	.	16aa\	.	.	.	.	.	.	.
8A\J	.	.	16ff#\	.	16aa\	.	.	.	.	.	.	.
.	.	.	16a\JJ	.	16a/JJ	.	.	.	.	.	.	.
!	!	!	!	!	!LO:LB:g=original	!	!	!	!	!	!	!
=96	=96	=96	=96	=96	=96	=96	=96	=96	=96	=96	=96	=96
!	!	!	!	!	!LO:TX:a:t=P:problem=mixed beam:mod=	!	!	!	!	!	!	!
8A\L	7	.	16ee\LL	.	16gg\LL	.	.	.	.	.	4.e\	4g\
.	.	.	16a\	.	16a/	.	.	.	.	.	.	.
8A\	.	.	16a\	.	16gg\ 16a/	.	.	.	.	.	.	.
.	.	.	16ee\	.	16gg\	.	.	.	.	.	.	.
!	!	!	!	!	!	!	!	!	!	!	!	!LO:MO:mod=!null:null
!	!	!	!	!	!	!	!	!	!	!	!	!LO:N:vis=4
8A\J	.	.	16ee\	.	16gg\	.	.	.	.	.	.	8g\
.	.	.	16a\JJ	.	16a/JJ	.	.	.	.	.	.	.
!	!	!	!LO:LB:g=original	!	!	!	!	!	!	!	!	!
=97	=97	=97	=97	=97	=97	=97	=97	=97	=97	=97	=97	=97
!	!	!	!	!	!LO:TX:a:t=P:problem=mixed beam:mod=	!	!	!	!	!	!	!
8A\L	6	.	16dd\LL	.	16ff#\LL	.	.	.	.	.	4.d\	4.f#\
.	.	.	16a\	.	16a/	.	.	.	.	.	.	.
8A\	.	.	16a\	.	16a/	.	.	.	.	.	.	.
.	.	.	16dd\	.	16ff#\	.	.	.	.	.	.	.
8A\J	.	.	16dd\	.	16ff#\	.	.	.	.	.	.	.
.	.	.	16a\JJ	.	16a/JJ	.	.	.	.	.	.	.
=98	=98	=98	=98	=98	=98	=98	=98	=98	=98	=98	=98	=98
!LO:TX:a:t=P:problem=mixed beam:mod=	!	!	!	!	!	!	!	!	!	!	!	!
8A\L	4	.	16dd\LL	.	16ff#\LL	.	.	.	.	.	8d\L	8f#\L
.	3	.	16cc#\J	.	16ee\J	.	.	.	.	.	.	.
8AA\	.	.	8cc#\J	.	8ee\J	.	.	.	.	.	8A\J	8e\J
!	!	!	!LO:MO:mod=!null:null	!	!	!	!	!	!	!	!	!
!	!	!	!LO:N:vis=8	!	!	!	!	!	!	!	!	!
!	!	!	!LO:MO:mod=8f#	!	!	!	!	!	!	!	!	!
8AA\J	.	.	16r	.	8a/	.	.	.	.	.	8r	8r
!	!	!	!LO:MO:mod=!null:null	!	!	!	!	!	!	!	!	!
!	!	!	!LO:N:vis=8	!	!	!	!	!	!	!	!	!
!	!	!	!LO:MO:mod=.	!	!	!	!	!	!	!	!	!
.	.	.	16f#/	.	.	.	.	.	.	.	.	.
=99	=99	=99	=99	=99	=99	=99	=99	=99	=99	=99	=99	=99
!	!	!	!	!	!	!	!	!	!	!	!LO:TX:a:t=3:mod=	!LO:TX:a:t=3:mod=
8AA/L	8	.	16f#/LL	.	16a/LL	.	1.r	.	1.r	.	2.r	2.r
.	.	.	16A/	.	16A/	.	.	.	.	.	.	.
8AA/	.	.	16A/	.	16A/	.	.	.	.	.	.	.
.	.	.	16f#/	.	16a/	.	.	.	.	.	.	.
8AA/J	.	.	16f#/	.	16a/	.	.	.	.	.	.	.
.	.	.	16A/JJ	.	16A/JJ	.	.	.	.	.	.	.
=100	=100	=100	=100	=100	=100	=100	=100	=100	=100	=100	=100	=100
8AA/L	7	.	16e/LL	.	16g/LL	.	.	.	.	.	.	.
.	.	.	16A/	.	16A/	.	.	.	.	.	.	.
8AA/	.	.	16A/	.	16A/	.	.	.	.	.	.	.
.	.	.	16e/	.	16g/	.	.	.	.	.	.	.
8AA/J	.	.	16e/	.	16g/	.	.	.	.	.	.	.
.	.	.	16A/JJ	.	16A/JJ	.	.	.	.	.	.	.
=101	=101	=101	=101	=101	=101	=101	=101	=101	=101	=101	=101	=101
!	!	!	!	!	!LO:TX:t=P:problem:takt dopisany - korekta:mod=	!	!	!	!	!	!	!
8AA/L	6	.	16d/LL	.	16f#/LL	.	.	.	.	.	4.r	4.r
.	.	.	16A/	.	16A/	.	.	.	.	.	.	.
8AA/	.	.	16A/	.	16A/	.	.	.	.	.	.	.
.	.	.	16d/	.	16f#/	.	.	.	.	.	.	.
8AA/J	.	.	16d/	.	16f#/	.	.	.	.	.	.	.
.	.	.	16A/JJ	.	16A/JJ	.	.	.	.	.	.	.
=102	=102	=102	=102	=102	=102	=102	=102	=102	=102	=102	=102	=102
!LO:TX:a:t=P:problem=mixed beam:mod=	!	!	!	!	!	!	!	!	!	!	!	!
8AA/L	4	.	16d/LL	.	16f#/LL	.	.	.	.	.	4r	4r
.	3	.	16c#/J	.	16e/J	.	.	.	.	.	.	.
8A\	.	.	8c#/J	.	8e/J	.	.	.	.	.	.	.
8G\J	.	.	8e/	.	8cc#\	.	.	.	.	.	8A/	8e\
=103	=103	=103	=103	=103	=103	=103	=103	=103	=103	=103	=103	=103
8F#\L	6	.	16a/LL	.	16dd\LL	.	1.r	.	1.r	.	8d\L	8f#\L
.	.	.	16a/	.	16dd\	.	.	.	.	.	.	.
8F#\	.	.	16a/	.	16dd\	.	.	.	.	.	8d\	8f#\
.	.	.	16a/	.	16dd\	.	.	.	.	.	.	.
8F#\J	.	.	16a/	.	16dd\	.	.	.	.	.	8d\J	8f#\J
.	.	.	16a/JJ	.	16dd\JJ	.	.	.	.	.	.	.
=104	=104	=104	=104	=104	=104	=104	=104	=104	=104	=104	=104	=104
8G\L	6	.	16e/LL	.	16g/LL	.	.	.	.	.	8e\L	8g\L
.	.	.	16e/	.	16g/	.	.	.	.	.	.	.
8G\	.	.	16e/	.	16g/	.	.	.	.	.	8e\	8g\
.	.	.	16e/	.	16g/	.	.	.	.	.	.	.
8G\J	.	.	16e/	.	16g/	.	.	.	.	.	8e\J	8g\J
.	.	.	16e/JJ	.	16g/JJ	.	.	.	.	.	.	.
!LO:LB:g=original	!	!	!	!	!	!	!	!	!	!	!	!
=105	=105	=105	=105	=105	=105	=105	=105	=105	=105	=105	=105	=105
8A\L	4	.	16d/LL	.	16f#/LL	.	.	.	.	.	8d\L	8f#\L
.	.	.	16d/	.	16f#/	.	.	.	.	.	.	.
8A\	.	.	16d/	.	16f#/	.	.	.	.	.	8d\	8f#\
.	.	.	16d/	.	16f#/	.	.	.	.	.	.	.
8A\J	.	.	16d/	.	16f#/	.	.	.	.	.	8d\J	8f#\J
.	.	.	16d/JJ	.	16f#/JJ	.	.	.	.	.	.	.
=106	=106	=106	=106	=106	=106	=106	=106	=106	=106	=106	=106	=106
8AA/L	3	.	16c#/LL	.	16e/LL	.	.	.	.	.	8A/L	8e\L
.	.	.	16c#/	.	16e/	.	.	.	.	.	.	.
8AA/	.	.	16c#/	.	16e/	.	.	.	.	.	8A/	8e\
.	.	.	16c#/JJ	.	16e/	.	.	.	.	.	.	.
!	!	!	!LO:LB:g=original	!	!	!	!	!	!	!	!	!
8AA/J	.	.	16c#/LL	.	16e/	.	.	.	.	.	8A/J	8e\J
.	.	.	16c#/JJ	.	16e/JJ	.	.	.	.	.	.	.
!	!	!	!	!	!LO:PB:g=original	!	!	!	!	!	!	!
=107	=107	=107	=107	=107	=107	=107	=107	=107	=107	=107	=107	=107
8D\L	.	.	4d/	.	4d/	.	4r	.	4r	.	4F#/	4d\
8F#\	.	.	.	.	.	.	.	.	.	.	.	.
!	!	!	!	!	!	!LO:DY:a	!	!LO:MO:mod=O-	!	!LO:MO:mod=O-	!	!
8D\J	.	.	8r	.	8a/	p	8a\	O	8a\	O	8r	8r
=108	=108	=108	=108	=108	=108	=108	=108	=108	=108	=108	=108	=108
!	!	!LO:DY:a	!	!LO:DY:a	!	!	!	!LO:MO:mod=-san-	!	!LO:MO:mod=-san-	!	!
8D/L	.	p	4dd\	p	8dd\L	.	4dd\	San-	8dd\L	San-	8d\	8f#\
8D/	.	.	.	.	8ff#\	.	.	.	8ff#\J	.	8r	8r
8D/J	.	.	8ff#\	.	8aa\J	.	8ff#\	-na	8aa\	-na	8r	8r
!	!	!	!	!	!	!	!	!	!	!	!LO:LB:g=original	!
=109	=109	=109	=109	=109	=109	=109	=109	=109	=109	=109	=109	=109
8D/L	.	.	16dd\LL	.	16dd\LL	.	4dd\	in	8dd\	in	8d\	8f#\
.	.	.	16dd\	.	16dd\	.	.	.	.	.	.	.
8D/	.	.	16dd\	.	16ff#\	.	.	.	8ff#\L	ex-	8r	8r
.	.	.	16dd\	.	16ff#\	.	.	.	.	.	.	.
8D/J	.	.	16ff#\	.	16aa\	.	8ff#\	ex-	8aa\J	.	8r	8r
.	.	.	16ff#\JJ	.	16aa\JJ	.	.	.	.	.	.	.
!	!	!	!	!	!	!	!	!	!	!	!	!LO:LB:g=original
=110	=110	=110	=110	=110	=110	=110	=110	=110	=110	=110	=110	=110
!LO:TX:a:t=P:problem=mixed beam:mod=	!	!	!	!	!	!	!	!	!	!	!	!
8G\L	.	.	16ee\LL	.	16gg\LL	.	8ee\L	-cel-	8gg\L	-cel-	8e\L	8g\L
.	.	.	16ee\	.	16gg\	.	.	.	.	.	.	.
8A\	4	.	16dd\	.	16ff#\	.	8dd\	.	8ff#\	.	8d\	8f#\
.	.	.	16dd\	.	16ff#\	.	.	.	.	.	.	.
8AA\J	3	.	16cc#\	.	16ee\	.	8cc#\J	.	8ee\J	.	8A\J	8e\J
.	.	.	16cc#\JJ	.	16ee\JJ	.	.	.	.	.	.	.
!	!	!	!	!	!	!	!LO:LB:g=original	!	!	!	!	!
=111	=111	=111	=111	=111	=111	=111	=111	=111	=111	=111	=111	=111
16d\LL	.	.	16dd/LL	.	16dd/LL	.	4dd\	-sis	4dd\	-sis	16d/LL	16d/LL
16d\	.	.	16dd/	.	16dd/	.	.	.	.	.	16d/	16d/
16F#\	.	.	16f#/	.	16f#/	.	.	.	.	.	16F#/	16F#/
16F#\	.	.	16f#/	.	16f#/	.	.	.	.	.	16F#/	16F#/
16A\	.	.	16a/	.	16a/	.	8r	.	8r	.	16A/	16A/
16A\JJ	.	.	16a/JJ	.	16a/JJ	.	.	.	.	.	16A/JJ	16A/JJ
=112	=112	=112	=112	=112	=112	=112	=112	=112	=112	=112	=112	=112
!	!	!	!	!	!	!	!LO:TX:a:t=8:mod=	!	!	!	!	!
4D\	.	.	4d/	.	4d/	.	1.r	.	4r	.	4D/	4D/
!	!	!	!	!	!	!	!	!	!	!LO:MO:mod=O-	!	!
8F#\	.	.	8f#/	.	8a/	.	.	.	8a\	o	8r	8r
=113	=113	=113	=113	=113	=113	=113	=113	=113	=113	=113	=113	=113
!	!	!	!	!	!	!	!	!	!	!LO:MO:mod=-san-	!LO:TX:a:t=2:mod=	!LO:TX:a:t=2:mod=
8G\L	.	.	16g/LL	.	16b\LL	.	.	.	8b\L	San-	2.r	2.r
.	.	.	16g/	.	16b\	.	.	.	.	.	.	.
8G\	.	.	16b/	.	16dd\	.	.	.	8dd\	.	.	.
.	.	.	16b/	.	16dd\	.	.	.	.	.	.	.
8G\J	.	.	16b/	.	16gg\	.	.	.	8gg\J	.	.	.
.	.	.	16b/JJ	.	16gg\JJ	.	.	.	.	.	.	.
=114	=114	=114	=114	=114	=114	=114	=114	=114	=114	=114	=114	=114
8D/L	.	.	16f#/LL	.	16a\LL	.	.	.	8a\L	.	.	.
.	.	.	16f#/	.	16a\	.	.	.	.	.	.	.
8D/	.	.	16a/	.	16dd\	.	.	.	8dd\	.	.	.
.	.	.	16a/	.	16dd\	.	.	.	.	.	.	.
8D/J	.	.	16dd/	.	16ff#\	.	.	.	8ff#\J	.	.	.
.	.	.	16dd/JJ	.	16ff#\JJ	.	.	.	.	.	.	.
!	!	!	!	!	!	!	!	!	!LO:LB:g=original	!	!	!
=115	=115	=115	=115	=115	=115	=115	=115	=115	=115	=115	=115	=115
8AA/L	7	.	16cc#/LL	.	16ee\LL	.	.	.	8ee\L	.	4r	4r
.	.	.	16cc#/	.	16ee\	.	.	.	.	.	.	.
8AA/	.	.	16a/	.	16cc#\	.	.	.	8cc#\	.	.	.
.	.	.	16a/	.	16cc#\	.	.	.	.	.	.	.
8C#/J	.	.	16e/	.	16g\	.	.	.	8g\J	.	8e\	8g\
.	.	.	16e/JJ	.	16g\JJ	.	.	.	.	.	.	.
=116	=116	=116	=116	=116	=116	=116	=116	=116	=116	=116	=116	=116
8D\L	.	.	8e/L	.	8g/L	.	1.r	.	8g/	.	8e\L	8g\L
8D\	.	.	8d/	.	8f#/	.	.	.	8f#/	-na	8d\J	8f#\J
!	!	!	!	!	!	!	!	!	!	!LO:MO:mod=O-	!	!
8F#\J	.	.	8f#/J	.	8a/J	.	.	.	8a\	o	8r	8r
=117	=117	=117	=117	=117	=117	=117	=117	=117	=117	=117	=117	=117
!	!	!	!	!	!	!	!	!	!	!LO:MO:mod=-san-	!LO:TX:a:t=2:mod=	!LO:TX:a:t=2:mod=
8G\L	.	.	16g/LL	.	16b\LL	.	.	.	8b\L	San-	2.r	2.r
.	.	.	16g/	.	16b\	.	.	.	.	.	.	.
8G\	.	.	16b/	.	16dd\	.	.	.	8dd\	.	.	.
.	.	.	16b/	.	16dd\	.	.	.	.	.	.	.
8G\J	.	.	16b/	.	16gg\	.	.	.	8gg\J	.	.	.
.	.	.	16b/JJ	.	16gg\JJ	.	.	.	.	.	.	.
!LO:LB:g=original	!	!	!LO:LB:g=original	!	!LO:LB:g=original	!	!	!	!	!	!	!
=118	=118	=118	=118	=118	=118	=118	=118	=118	=118	=118	=118	=118
8D/L	.	.	16f#/LL	.	16a\LL	.	.	.	8a\L	.	.	.
.	.	.	16f#/	.	16a\	.	.	.	.	.	.	.
8D/	.	.	16a/	.	16dd\	.	.	.	8dd\	.	.	.
.	.	.	16a/	.	16dd\	.	.	.	.	.	.	.
8D/J	.	.	16dd/	.	16ff#\	.	.	.	8ff#\J	.	.	.
.	.	.	16dd/JJ	.	16ff#\JJ	.	.	.	.	.	.	.
=119	=119	=119	=119	=119	=119	=119	=119	=119	=119	=119	=119	=119
8AA/L	7	.	16cc#/LL	.	16ee\LL	.	.	.	8ee\L	.	4r	4r
.	.	.	16cc#/	.	16ee\	.	.	.	.	.	.	.
8AA/	.	.	16a/	.	16cc#\	.	.	.	8cc#\	.	.	.
.	.	.	16a/	.	16cc#\	.	.	.	.	.	.	.
8AA/J	.	.	16e/	.	16g\	.	.	.	8g\J	.	8e\	8g\
.	.	.	16e/JJ	.	16g\JJ	.	.	.	.	.	.	.
=120	=120	=120	=120	=120	=120	=120	=120	=120	=120	=120	=120	=120
!	!	!	!LO:TX:a:t=P:problem=mixed beam:mod=	!	!LO:TX:a:t=P:problem=mixed beam:mod=	!	!	!	!	!	!	!
8AA/L	4	.	8d/L	.	8f#/L	.	4r	.	8f#/	.	8d\L	8f#\L
8AA/	3	.	8c#/	.	8e/	.	.	.	8e/	-na	8A\	8e\
!	!	!	!	!	!	!	!	!LO:MO:mod=O-	!	!LO:MO:mod=O-	!	!
8AA/J	8	.	8ff#\J	.	8aa\J	.	8ff#\	O	8aa\	o	8f#\J	8a\J
=121	=121	=121	=121	=121	=121	=121	=121	=121	=121	=121	=121	=121
!	!	!	!	!	!	!	!	!LO:MO:mod=-san-	!	!LO:MO:mod=-san-	!	!
8BB/L	#	.	16ff#\LL	.	16aa\LL	.	4.ff#\	San-	4.aa\	San-	4.f#\	4.a\
.	.	.	16ff#\	.	16aa\	.	.	.	.	.	.	.
8BB/	.	.	16ff#\	.	16aa\	.	.	.	.	.	.	.
.	.	.	16ff#\	.	16aa\	.	.	.	.	.	.	.
8D#X/J	.	.	16ff#\	.	16aa\	.	.	.	.	.	.	.
.	.	.	16ff#\JJ	.	16aa\JJ	.	.	.	.	.	.	.
=122	=122	=122	=122	=122	=122	=122	=122	=122	=122	=122	=122	=122
8E\L	.	.	16ff#\LL	.	16aa\LL	.	16ff#\LL	.	16aa\LL	.	8f#\L	8a\L
.	.	.	16ee\J	.	16gg\JJ	.	16ee\JJ	.	16gg\JJ	.	.	.
8E\	.	.	8ee\J	.	4gg\	.	8ee\	-na	8gg\	-na	8e\J	8g\J
!	!	!	!	!	!	!	!	!LO:MO:mod=O-	!	!LO:MO:mod=O-	!	!
8E\J	.	.	8ee\	.	.	.	8ee\	o	8gg\	o	8r	8r
=123	=123	=123	=123	=123	=123	=123	=123	=123	=123	=123	=123	=123
!	!	!	!	!	!	!	!	!LO:MO:mod=-san-	!	!LO:MO:mod=-san-	!	!
8AA/L	2	.	16ee\LL	.	16gg\LL	.	4.ee\	San-	4.gg\	San-	4.e\	4g\
.	.	.	16ee\	.	16gg\	.	.	.	.	.	.	.
8AA/	.	.	16ee\	.	16gg\	.	.	.	.	.	.	.
.	.	.	16ee\	.	16gg\	.	.	.	.	.	.	.
!	!	!	!	!	!	!	!	!	!	!	!	!LO:MO:mod=!null:null
!	!	!	!	!	!	!	!	!	!	!	!	!LO:N:vis=4
8C#/J	.	.	16ee\	.	16gg\	.	.	.	.	.	.	8g\
.	.	.	16ee\JJ	.	16gg\JJ	.	.	.	.	.	.	.
=124	=124	=124	=124	=124	=124	=124	=124	=124	=124	=124	=124	=124
8Dn/L	.	.	16ee\LL	.	16gg\LL	.	16ee\LL	.	16gg\LL	.	8e\L	8g\L
.	.	.	16dd\J	.	16ff#\J	.	16dd\JJ	.	16ff#\JJ	.	.	.
8D/	.	.	8dd\J	.	8ff#\J	.	8dd\	-na	8ff#\	-na	8d\	8f#\
8D/J	.	.	8ff#\	.	8aa\	.	8ff#\	in	8aa\	in	8f#\J	8a\J
=125	=125	=125	=125	=125	=125	=125	=125	=125	=125	=125	=125	=125
!	!	!	!	!	!LO:TUP:a:problem=klamra łukowa	!	!	!	!	!	!	!
8AA/L	8	.	8ff#\L	.	24aa\LL	.	4.ff#\	ex-	4.aa\	ex-	4.f#\	4.a\
.	.	.	.	.	24ff#\	.	.	.	.	.	.	.
.	.	.	.	.	24a\JJ	.	.	.	.	.	.	.
!	!	!	!	!	!LO:TUP:a:problem=klamra łukowa	!	!	!	!	!	!	!
8AA/	.	.	8ff#\	.	24aa\LL	.	.	.	.	.	.	.
.	.	.	.	.	24ff#\	.	.	.	.	.	.	.
.	.	.	.	.	24a\JJ	.	.	.	.	.	.	.
!	!	!	!	!	!LO:TUP:a:problem=klamra łukowa	!	!	!	!	!	!	!
8AA/J	.	.	8ff#\J	.	24aa\LL	.	.	.	.	.	.	.
.	.	.	.	.	24ff#\	.	.	.	.	.	.	.
.	.	.	.	.	24a\JJ	.	.	.	.	.	.	.
!	!	!	!	!	!	!	!	!	!LO:LB:g=original	!	!	!
=126	=126	=126	=126	=126	=126	=126	=126	=126	=126	=126	=126	=126
!	!	!	!	!	!LO:TUP:a:problem=klamra łukowa	!	!	!	!	!	!	!
8AA/L	7	.	8ee\L	.	24gg\LL	.	4.ee\	-cel-	4.gg\	-cel-	4.e\	4.g\
.	.	.	.	.	24ee\	.	.	.	.	.	.	.
.	.	.	.	.	24a\JJ	.	.	.	.	.	.	.
!	!	!	!	!	!LO:TUP:a:problem=klamra łukowa	!	!	!	!	!	!	!
8AA/	.	.	8ee\	.	24gg\LL	.	.	.	.	.	.	.
.	.	.	.	.	24ee\	.	.	.	.	.	.	.
.	.	.	.	.	24a\JJ	.	.	.	.	.	.	.
!	!	!	!	!	!LO:TUP:a:problem=klamra łukowa	!	!	!	!	!	!	!
8AA/J	.	.	8ee\J	.	24gg\LL	.	.	.	.	.	.	.
.	.	.	.	.	24ee\	.	.	.	.	.	.	.
.	.	.	.	.	24a\JJ	.	.	.	.	.	.	.
!	!	!	!	!	!LO:LB:g=original	!	!	!	!	!	!	!
=127	=127	=127	=127	=127	=127	=127	=127	=127	=127	=127	=127	=127
!	!	!	!	!	!LO:TUP:a:problem=klamra łukowa	!	!	!	!	!	!	!
8AA/L	6	.	8dd\L	.	24ff#\LL	.	4.dd\	.	4.ff#\	.	4.d\	4.f#\
.	.	.	.	.	24dd\	.	.	.	.	.	.	.
.	.	.	.	.	24a\JJ	.	.	.	.	.	.	.
!	!	!	!	!	!LO:TUP:a:problem=klamra łukowa	!	!	!	!	!	!	!
8AA/	.	.	8dd\	.	24ff#\LL	.	.	.	.	.	.	.
.	.	.	.	.	24dd\	.	.	.	.	.	.	.
.	.	.	.	.	24a\JJ	.	.	.	.	.	.	.
!	!	!	!	!	!LO:TUP:a:problem=klamra łukowa	!	!	!	!	!	!	!
8AA/J	.	.	8dd\J	.	24ff#\LL	.	.	.	.	.	.	.
.	.	.	.	.	24dd\	.	.	.	.	.	.	.
.	.	.	.	.	24a\JJ	.	.	.	.	.	.	.
=128	=128	=128	=128	=128	=128	=128	=128	=128	=128	=128	=128	=128
8AA/L	4	.	16dd\LL	.	16ff#\LL	.	16dd\LL	.	16ff#\LL	.	8d\L	8f#\L
.	3	.	16cc#\J	.	16ee\J	.	16cc#\JJ	.	16ee\JJ	.	.	.
8AA/	.	.	8cc#\J	.	8ee\J	.	8cc#\	-sis	8ee\	-sis	8A\J	8e\J
8AA/J	.	.	8f#/	.	8a/	.	8f#/	in	8a\	in	8r	8r
=129	=129	=129	=129	=129	=129	=129	=129	=129	=129	=129	=129	=129
!	!	!	!	!	!LO:TUP:a:problem=klamra łukowa	!	!	!	!	!	!LO:TX:a:t=3:mod=	!LO:TX:a:t=3:mod=
8AA/L	8	.	8f#/L	.	24a/LL	.	4.f#/	ex-	4.a\	ex-	2.r	2.r
.	.	.	.	.	24f#/	.	.	.	.	.	.	.
.	.	.	.	.	24A/JJ	.	.	.	.	.	.	.
!	!	!	!	!	!LO:TUP:a:problem=klamra łukowa	!	!	!	!	!	!	!
8AA/	.	.	8f#/	.	24a/LL	.	.	.	.	.	.	.
.	.	.	.	.	24f#/	.	.	.	.	.	.	.
.	.	.	.	.	24A/JJ	.	.	.	.	.	.	.
!	!	!	!	!	!LO:TUP:a:problem=klamra łukowa	!	!	!	!	!	!	!
8AA/J	.	.	8f#/J	.	24a/LL	.	.	.	.	.	.	.
.	.	.	.	.	24f#/	.	.	.	.	.	.	.
.	.	.	.	.	24A/JJ	.	.	.	.	.	.	.
!	!	!	!LO:LB:g=original	!	!	!	!LO:LB:g=original	!	!	!	!	!
=130	=130	=130	=130	=130	=130	=130	=130	=130	=130	=130	=130	=130
!	!	!	!	!	!LO:TUP:a:problem=klamra łukowa	!	!	!	!	!	!	!
8AA/L	7	.	8e/L	.	24g/LL	.	4.e/	-cel-	4.g/	-cel-	.	.
.	.	.	.	.	24e/	.	.	.	.	.	.	.
.	.	.	.	.	24A/JJ	.	.	.	.	.	.	.
!	!	!	!	!	!LO:TUP:a:problem=klamra łukowa	!	!	!	!	!	!	!
8AA/	.	.	8e/	.	24g/LL	.	.	.	.	.	.	.
.	.	.	.	.	24e/	.	.	.	.	.	.	.
.	.	.	.	.	24A/JJ	.	.	.	.	.	.	.
!	!	!	!	!	!LO:TUP:a:problem=klamra łukowa	!	!	!	!	!	!	!
8AA/J	.	.	8e/J	.	24g/LL	.	.	.	.	.	.	.
.	.	.	.	.	24e/	.	.	.	.	.	.	.
.	.	.	.	.	24A/JJ	.	.	.	.	.	.	.
=131	=131	=131	=131	=131	=131	=131	=131	=131	=131	=131	=131	=131
!	!	!	!	!	!LO:TUP:a:problem=klamra łukowa	!	!	!	!	!	!	!
8AA/L	6	.	8d/L	.	24f#/LL	.	4.d/	.	4.f#/	.	4.r	4.r
.	.	.	.	.	24d/	.	.	.	.	.	.	.
.	.	.	.	.	24A/JJ	.	.	.	.	.	.	.
!	!	!	!	!	!LO:TUP:a:problem=klamra łukowa	!	!	!	!	!	!	!
8AA/	.	.	8d/	.	24f#/LL	.	.	.	.	.	.	.
.	.	.	.	.	24d/	.	.	.	.	.	.	.
.	.	.	.	.	24A/JJ	.	.	.	.	.	.	.
!	!	!	!	!	!LO:TUP:a:problem=klamra łukowa	!	!	!	!	!	!	!
8AA/J	.	.	8d/J	.	24f#/LL	.	.	.	.	.	.	.
.	.	.	.	.	24d/	.	.	.	.	.	.	.
.	.	.	.	.	24A/JJ	.	.	.	.	.	.	.
=132	=132	=132	=132	=132	=132	=132	=132	=132	=132	=132	=132	=132
!LO:TX:a:t=P:problem=mixed beam:mod=	!	!	!	!	!	!	!	!	!	!	!	!
8AA/L	4	.	16d/LL	.	16f#/LL	.	16d/LL	.	16f#/LL	.	4r	4r
.	3_	.	16c#/J	.	16e/J	.	16c#/JJ	.	16e/JJ	.	.	.
8A\	.	.	8c#/J	.	8e/J	.	8c#/	-sis	8e/	-sis	.	.
!	!	!	!	!	!	!	!	!	!	!	!LO:TX:t=P:problem:korekta - pierwotnie dźwięk g:mod=	!
8G\J	.	.	8e/	.	8cc#\	.	8e/	in	8cc#\	in	8e\	8cc#\
!LO:LB:g=original	!	!	!	!	!	!	!	!	!	!	!	!LO:LB:g=original
=133	=133	=133	=133	=133	=133	=133	=133	=133	=133	=133	=133	=133
8G\L	2	.	16e/LL	.	16cc#\LL	.	4.e/	ex-	4.cc#\	ex-	8e\L	8cc#\L
.	.	.	16e/	.	16cc#\	.	.	.	.	.	.	.
8G\	.	.	16e/	.	16cc#\	.	.	.	.	.	8e\	8cc#\
.	.	.	16e/	.	16cc#\	.	.	.	.	.	.	.
8G\J	.	.	16e/	.	16cc#\	.	.	.	.	.	8e\J	8cc#\J
.	.	.	16e/JJ	.	16cc#\JJ	.	.	.	.	.	.	.
!	!	!	!	!	!LO:LB:g=original	!	!	!	!	!	!	!
=134	=134	=134	=134	=134	=134	=134	=134	=134	=134	=134	=134	=134
8F#\L	6	.	16a/LL	.	16dd\LL	.	4.a\	-cel-	4.dd\	-cel-	8f#\L	8dd\L
.	.	.	16a/	.	16dd\	.	.	.	.	.	.	.
8F#\	.	.	16a/	.	16dd\	.	.	.	.	.	8f#\	8dd\
.	.	.	16a/	.	16dd\	.	.	.	.	.	.	.
8F#\J	.	.	16a/	.	16dd\	.	.	.	.	.	8f#\J	8dd\J
.	.	.	16a/JJ	.	16dd\JJ	.	.	.	.	.	.	.
!	!	!	!	!	!	!	!	!	!	!	!LO:LB:g=original	!
=135	=135	=135	=135	=135	=135	=135	=135	=135	=135	=135	=135	=135
8G\L	6	.	16ee\LL	.	16gg\LL	.	4.ee\	.	4.gg\	.	8e\L	8g\L
.	.	.	16ee\	.	16gg\	.	.	.	.	.	.	.
8G\	.	.	16ee\	.	16gg\	.	.	.	.	.	8e\	8g\
.	.	.	16ee\	.	16gg\	.	.	.	.	.	.	.
8G\J	.	.	16ee\	.	16gg\	.	.	.	.	.	8e\J	8g\J
.	.	.	16ee\JJ	.	16gg\JJ	.	.	.	.	.	.	.
=136	=136	=136	=136	=136	=136	=136	=136	=136	=136	=136	=136	=136
8A\L	4	.	16dd\LL	.	16ff#\LL	.	4.dd\	.	4.ff#\	.	8d\L	8f#\L
.	.	.	16dd\	.	16ff#\	.	.	.	.	.	.	.
8A\	.	.	16dd\	.	16ff#\	.	.	.	.	.	8d\	8f#\
.	.	.	16dd\	.	16ff#\	.	.	.	.	.	.	.
8A\J	.	.	16dd\	.	16ff#\	.	.	.	.	.	8d\J	8f#\J
.	.	.	16dd\JJ	.	16ff#\JJ	.	.	.	.	.	.	.
=137	=137	=137	=137	=137	=137	=137	=137	=137	=137	=137	=137	=137
8AA/L	3	.	16cc#\LL	.	16ee\LL	.	4.cc#\	.	4.ee\	.	8A/L	8e\L
.	.	.	16cc#\	.	16ee\	.	.	.	.	.	.	.
8AA/	.	.	16cc#\	.	16ee\	.	.	.	.	.	8A/	8e\
.	.	.	16cc#\	.	16ee\	.	.	.	.	.	.	.
8AA/J	.	.	16cc#\	.	16ee\	.	.	.	.	.	8A/J	8e\J
.	.	.	16cc#\JJ	.	16ee\JJ	.	.	.	.	.	.	.
=138	=138	=138	=138	=138	=138	=138	=138	=138	=138	=138	=138	=138
8D\L	.	.	4dd\	.	4dd\	.	4dd\	-sis	4dd\	-sis	4F#/	4d\
8F#\	.	.	.	.	.	.	.	.	.	.	.	.
!	!	!	!	!LO:DY:a	!	!LO:MO:null:mod=f	!	!	!	!	!	!
8D\J	.	.	8f#/	f	8a/	.	8r	.	8r	.	8f#\	8a\
=139	=139	=139	=139	=139	=139	=139	=139	=139	=139	=139	=139	=139
!	!	!LO:DY:a	!	!	!	!LO:DY:a	!LO:TX:a:t=22:mod=	!	!LO:TX:a:t=22:mod=	!	!	!
!	!	!	!	!	!	!LO:MO:mod=.	!	!	!	!	!	!
8G\L	.	f	16g/LL	.	16b\LL	f	1.r	.	1.r	.	8g\	8b\
.	.	.	16g/	.	16b\	.	.	.	.	.	.	.
8G\	.	.	16b/	.	16dd\	.	.	.	.	.	8r	8r
.	.	.	16b/	.	16dd\	.	.	.	.	.	.	.
8G\J	.	.	16b/	.	16gg\	.	.	.	.	.	8r	8r
.	.	.	16b/JJ	.	16gg\JJ	.	.	.	.	.	.	.
=140	=140	=140	=140	=140	=140	=140	=140	=140	=140	=140	=140	=140
8D/L	.	.	16f#/LL	.	16a\LL	.	.	.	.	.	8f#\	8a\
.	.	.	16f#/	.	16a\	.	.	.	.	.	.	.
8D/	.	.	16a/	.	16dd\	.	.	.	.	.	8r	8r
.	.	.	16a/	.	16dd\	.	.	.	.	.	.	.
8D/J	.	.	16dd/	.	16ff#\	.	.	.	.	.	8r	8r
.	.	.	16dd/JJ	.	16ff#\JJ	.	.	.	.	.	.	.
!	!	!	!LO:LB:g=original	!	!	!	!	!	!	!	!	!
=141	=141	=141	=141	=141	=141	=141	=141	=141	=141	=141	=141	=141
!	!	!	!	!	!LO:TX:t=P:problem::wykreślony takt (korekta):mod=	!	!	!	!	!	!	!
8AA/L	7	.	16cc#/LL	.	16ee\LL	.	.	.	.	.	8e\	8g\
.	.	.	16cc#/	.	16ee\	.	.	.	.	.	.	.
8AA/	.	.	16a/	.	16cc#\	.	.	.	.	.	8r	8r
.	.	.	16a/	.	16cc#\	.	.	.	.	.	.	.
8C#/J	.	.	16e/	.	16g\	.	.	.	.	.	8e\	8g\
.	.	.	16e/JJ	.	16g\JJ	.	.	.	.	.	.	.
=142	=142	=142	=142	=142	=142	=142	=142	=142	=142	=142	=142	=142
8D/L	.	.	8e/L	.	8g/L	.	.	.	.	.	8e\L	8g\L
.	2	.	.	.	.	.	.	.	.	.	.	.
8D/	3	.	8d/	.	8f#/	.	.	.	.	.	8d\	8f#\
8D/J	.	.	8f#/J	.	8a/J	.	.	.	.	.	8f#\J	8a\J
=143	=143	=143	=143	=143	=143	=143	=143	=143	=143	=143	=143	=143
8G\L	.	.	16g/LL	.	16b\LL	.	1.r	.	1.r	.	8g\	8b\
.	.	.	16g/	.	16b\	.	.	.	.	.	.	.
8G\	.	.	16b/	.	16dd\	.	.	.	.	.	8r	8r
.	.	.	16b/	.	16dd\	.	.	.	.	.	.	.
8G\J	.	.	16b/	.	16gg\	.	.	.	.	.	8r	8r
.	.	.	16b/JJ	.	16gg\JJ	.	.	.	.	.	.	.
!	!	!	!	!	!LO:LB:g=original	!	!	!	!	!	!	!
=144	=144	=144	=144	=144	=144	=144	=144	=144	=144	=144	=144	=144
8D/L	.	.	16f#/LL	.	16a\LL	.	.	.	.	.	8f#\	8a\
.	.	.	16f#/	.	16a\	.	.	.	.	.	.	.
8D/	.	.	16a/	.	16dd\	.	.	.	.	.	8r	8r
.	.	.	16a/	.	16dd\	.	.	.	.	.	.	.
8D/J	.	.	16dd/	.	16ff#\	.	.	.	.	.	8r	8r
.	.	.	16dd/JJ	.	16ff#\JJ	.	.	.	.	.	.	.
=145	=145	=145	=145	=145	=145	=145	=145	=145	=145	=145	=145	=145
8AA/L	7	.	16cc#/LL	.	16ee\LL	.	.	.	.	.	8e\	8g\
.	.	.	16cc#/	.	16ee\	.	.	.	.	.	.	.
8AA/	.	.	16a/	.	16cc#\	.	.	.	.	.	8r	8r
.	.	.	16a/	.	16cc#\	.	.	.	.	.	.	.
8AA/J	.	.	16e/	.	16g\	.	.	.	.	.	8e\	8g\
.	.	.	16e/JJ	.	16g\JJ	.	.	.	.	.	.	.
=146	=146	=146	=146	=146	=146	=146	=146	=146	=146	=146	=146	=146
!LO:TX:a:t=P:problem=mixed beam:mod=	!	!	!LO:TX:a:t=P:problem=mixed beam:mod=	!	!LO:TX:a:t=P:problem=mixed beam:mod=	!	!	!	!	!	!	!
8AA/L	4	.	8d/L	.	8f#/L	.	.	.	.	.	8d\L	8f#\L
8AA/	3	.	8c#/	.	8e/	.	.	.	.	.	8A\	8e\
8A\J	8	.	8ff#\J	.	8aa\J	.	.	.	.	.	8f#\J	8a\J
!LO:LB:g=original	!	!	!	!	!	!	!	!	!	!	!	!
=147	=147	=147	=147	=147	=147	=147	=147	=147	=147	=147	=147	=147
!	!	!	!	!	!LO:TX:a:t=P:problem=mixed beam:mod=	!	!	!	!	!	!	!
8A\L	8	.	16ff#\LL	.	16aa\LL	.	1.r	.	1.r	.	4.f#\	4.a\
.	.	.	16a\	.	16a/	.	.	.	.	.	.	.
8A\	.	.	16a\	.	16a/	.	.	.	.	.	.	.
.	.	.	16ff#\	.	16aa\	.	.	.	.	.	.	.
8A\J	.	.	16ff#\	.	16aa\	.	.	.	.	.	.	.
.	.	.	16a\JJ	.	16a/JJ	.	.	.	.	.	.	.
=148	=148	=148	=148	=148	=148	=148	=148	=148	=148	=148	=148	=148
!	!	!	!	!	!LO:TX:a:t=P:problem=mixed beam:mod=	!	!	!	!	!	!	!
8A\L	7	.	16ee\LL	.	16gg\LL	.	.	.	.	.	4.e\	4.g\
.	.	.	16a\	.	16a/	.	.	.	.	.	.	.
8A\	.	.	16a\	.	16a/	.	.	.	.	.	.	.
.	.	.	16ee\	.	16gg\	.	.	.	.	.	.	.
8A\J	.	.	16ee\	.	16gg\	.	.	.	.	.	.	.
.	.	.	16a\JJ	.	16a/JJ	.	.	.	.	.	.	.
=149	=149	=149	=149	=149	=149	=149	=149	=149	=149	=149	=149	=149
!	!	!	!	!	!LO:TX:a:t=P:problem=mixed beam:mod=	!	!	!	!	!	!	!
8A\L	6	.	16dd\LL	.	16ff#\LL	.	.	.	.	.	4.d\	4.f#\
.	.	.	16a\	.	16a/	.	.	.	.	.	.	.
8A\	.	.	16a\	.	16a/	.	.	.	.	.	.	.
.	.	.	16dd\	.	16ff#\	.	.	.	.	.	.	.
8A\J	.	.	16dd\	.	16ff#\	.	.	.	.	.	.	.
.	.	.	16a\JJ	.	16a/JJ	.	.	.	.	.	.	.
=150	=150	=150	=150	=150	=150	=150	=150	=150	=150	=150	=150	=150
!LO:TX:a:t=P:problem=mixed beam:mod=	!	!	!	!	!	!	!	!	!	!	!	!
8A\L	4	.	16dd\LL	.	16ff#\LL	.	.	.	.	.	8d\L	8f#\L
.	.	.	16cc#\J	.	16ee\J	.	.	.	.	.	.	.
8AA/	3	.	8cc#\J	.	8ee\J	.	.	.	.	.	8A\J	8e\J
8AA/J	5	.	8f#/	.	8a/	.	.	.	.	.	8r	8r
!	!	!	!LO:LB:g=original	!	!	!	!	!	!	!	!	!
=151	=151	=151	=151	=151	=151	=151	=151	=151	=151	=151	=151	=151
!	!	!	!	!	!	!	!	!	!	!	!LO:TX:a:t=3:mod=	!LO:TX:a:t=3:mod=
8AA/L	8	.	16f#/LL	.	16a/LL	.	1.r	.	1.r	.	2.r	2.r
.	.	.	16A/	.	16A/	.	.	.	.	.	.	.
8AA/	.	.	16A/	.	16A/	.	.	.	.	.	.	.
.	.	.	16f#/	.	16a/	.	.	.	.	.	.	.
8AA/J	.	.	16f#/	.	16a/	.	.	.	.	.	.	.
.	.	.	16A/JJ	.	16A/JJ	.	.	.	.	.	.	.
=152	=152	=152	=152	=152	=152	=152	=152	=152	=152	=152	=152	=152
8AA/L	7	.	16e/LL	.	16g/LL	.	.	.	.	.	.	.
.	.	.	16A/	.	16A/	.	.	.	.	.	.	.
8AA/	.	.	16A/	.	16A/	.	.	.	.	.	.	.
.	.	.	16e/	.	16g/	.	.	.	.	.	.	.
8AA/J	.	.	16e/	.	16g/	.	.	.	.	.	.	.
.	.	.	16A/JJ	.	16A/JJ	.	.	.	.	.	.	.
=153	=153	=153	=153	=153	=153	=153	=153	=153	=153	=153	=153	=153
!	!	!	!	!	!LO:TX:t=P:problem:takt dopisany - korekta:mod=	!	!	!	!	!	!	!
8AA/L	6	.	16d/LL	.	16f#/LL	.	.	.	.	.	4.r	4.r
.	.	.	16A/	.	16A/	.	.	.	.	.	.	.
8AA/	.	.	16A/	.	16A/	.	.	.	.	.	.	.
.	.	.	16d/	.	16f#/	.	.	.	.	.	.	.
8AA/J	.	.	16d/	.	16f#/	.	.	.	.	.	.	.
.	.	.	16A/JJ	.	16A/JJ	.	.	.	.	.	.	.
!	!	!	!	!	!LO:LB:g=original	!	!	!	!	!	!	!
=154	=154	=154	=154	=154	=154	=154	=154	=154	=154	=154	=154	=154
!LO:TX:a:t=P:problem=mixed beam:mod=	!	!	!	!	!	!	!	!	!	!	!	!
8AA/L	4	.	16d/LL	.	16f#/LL	.	.	.	.	.	4r	4r
.	.	.	16c#/J	.	16e/J	.	.	.	.	.	.	.
8A\	3_	.	8c#/J	.	8e/J	.	.	.	.	.	.	.
8G\J	.	.	8e/	.	8cc#\	.	.	.	.	.	8A/	8e\
!	!	!	!	!	!	!	!	!	!	!	!LO:LB:g=original	!LO:LB:g=original
=155	=155	=155	=155	=155	=155	=155	=155	=155	=155	=155	=155	=155
8G\L	2	.	16e/LL	.	16cc#\LL	.	1.r	.	1.r	.	8A/L	8e\L
.	.	.	16e/	.	16cc#\	.	.	.	.	.	.	.
8G\	.	.	16e/	.	16cc#\	.	.	.	.	.	8A/	8e\
.	.	.	16e/	.	16cc#\	.	.	.	.	.	.	.
8G\J	.	.	16e/	.	16cc#\	.	.	.	.	.	8A/J	8e\J
.	.	.	16e/JJ	.	16cc#\JJ	.	.	.	.	.	.	.
=156	=156	=156	=156	=156	=156	=156	=156	=156	=156	=156	=156	=156
8F#\L	6	.	16a/LL	.	16dd\LL	.	.	.	.	.	8d\L	8f#\L
.	.	.	16a/	.	16dd\	.	.	.	.	.	.	.
8F#\	.	.	16a/	.	16dd\	.	.	.	.	.	8d\	8f#\
.	.	.	16a/	.	16dd\	.	.	.	.	.	.	.
8F#\J	.	.	16a/	.	16dd\	.	.	.	.	.	8d\J	8f#\J
.	.	.	16a/JJ	.	16dd\JJ	.	.	.	.	.	.	.
=157	=157	=157	=157	=157	=157	=157	=157	=157	=157	=157	=157	=157
8G\L	6	.	16e/LL	.	16g/LL	.	.	.	.	.	8e\L	8g\L
.	.	.	16e/	.	16g/	.	.	.	.	.	.	.
8G\	.	.	16e/	.	16g/	.	.	.	.	.	8e\	8g\
.	.	.	16e/	.	16g/	.	.	.	.	.	.	.
8G\J	.	.	16e/	.	16g/	.	.	.	.	.	8e\J	8g\J
.	.	.	16e/JJ	.	16g/JJ	.	.	.	.	.	.	.
=158	=158	=158	=158	=158	=158	=158	=158	=158	=158	=158	=158	=158
8A\L	4	.	16d/LL	.	16f#/LL	.	.	.	.	.	8d\L	8f#\L
.	.	.	16d/	.	16f#/	.	.	.	.	.	.	.
8A\	.	.	16d/	.	16f#/	.	.	.	.	.	8d\	8f#\
.	.	.	16d/	.	16f#/	.	.	.	.	.	.	.
8A\J	.	.	16d/	.	16f#/	.	.	.	.	.	8d\J	8f#\J
.	.	.	16d/JJ	.	16f#/JJ	.	.	.	.	.	.	.
=159	=159	=159	=159	=159	=159	=159	=159	=159	=159	=159	=159	=159
8AA/L	.	.	16c#/LL	.	16e/LL	.	2.r	.	2.r	.	8A/L	8e\L
.	.	.	16c#/	.	16e/	.	.	.	.	.	.	.
8AA/	.	.	16c#/	.	16e/	.	.	.	.	.	8A/	8e\
.	.	.	16c#/	.	16e/	.	.	.	.	.	.	.
8AA/J	.	.	16c#/	.	16e/	.	.	.	.	.	8A/J	8e\J
.	.	.	16c#/JJ	.	16e/JJ	.	.	.	.	.	.	.
!	!	!	!LO:LB:g=original	!	!	!	!	!	!	!	!	!
=160	=160	=160	=160	=160	=160	=160	=160	=160	=160	=160	=160	=160
4D/	.	.	4d/	.	4d/	.	.	.	.	.	4F#/	4d\
8r	.	.	8r	.	8r	.	.	.	.	.	8r	8r
!LO:MO:mod===	!LO:MO:mod===	!LO:MO:mod===	!LO:MO:mod===	!LO:MO:mod===	!LO:MO:mod===	!LO:MO:mod===	!LO:MO:mod===	!LO:MO:mod===	!LO:MO:mod===	!LO:MO:mod===	!LO:MO:mod===	!LO:MO:mod===
==:|!|:	==:|!|:	==:|!|:	==:|!|:	==:|!|:	==	==	==:|!|:	==:|!|:	==:|!|:	==:|!|:	==:|!|:	==:|!|:
*-	*-	*-	*-	*-	*-	*-	*-	*-	*-	*-	*-	*-
!!!system-decoration: [(g1)][(g2)][(g3)]s7
!!!RDF**kern: @ = marked note, color=grey
!!LO:MO:ori
!!!RDF**kern: > = above
!!!RDF**kern: < = below
!!!RDF**dynam: p = pia
!!!RDF**dynam: f = for
!!LO:MO:end
!!!filter-modern: sic -sq | autostem -r | tie -s | shed -k -e "s/[<>]//g" | shed -e "s/LO:DY:(a|b|rj)/LO:dy:$1/L" | modori -m
!!!ENC: Krzysztof Stępień
!!!END: 2020-04-17
!!!ENC: Leszek Kubiak
!!!END: 2020-10-01
!!!ENC-modern: Marta Lawrence
!!!END-modern: 2022-07-01
!!!YEC: Copyright 2022 Narodowy Instytut Fryderyka Chopina (https://polishscores.org)
!!!YEM: License CC-BY-4.0 (https://creativecommons.org/licenses/by/4.0)
